;FLAVOR:Marlin
;TIME:7152
;Filament used: 5.62481m
;Layer height: 0.2
;MINX:75.203
;MINY:47.203
;MINZ:0.3
;MAXX:144.797
;MAXY:172.797
;MAXZ:2.1
;Generated with Cura_SteamEngine 5.2.1
M140 S60
M105
M190 S60
M104 S200
M105
M109 S200
M82 ;absolute extrusion mode
G28 ;Home
G1 Z15.0 F2000 ;Move the platform
G92 E0
G92 E0
G1 F1500 E-6.5
;LAYER_COUNT:10
;LAYER:0
M107
M204 S1000
;MESH:Large Display Mount Bottom-Body.stl
G0 F7500 X75.603 Y172.397 Z0.3
;TYPE:WALL-INNER
G1 F1500 E0
G1 X144.397 Y172.397 E3.43215
G1 X144.397 Y47.603 E9.65814
G1 X136.103 Y47.603 E10.07193
G1 X136.103 Y145.08 E14.93508
G1 X136.032 Y145.285 E14.9459
G1 X135.863 Y145.483 E14.95889
G1 X135.629 Y145.6 E14.97194
G1 X129.963 Y145.602 E15.25462
G1 X129.654 Y145.495 E15.27094
G1 X129.494 Y145.329 E15.28244
G1 X129.399 Y145.044 E15.29743
G1 X129.398 Y75.602 E18.7619
G1 X90.602 Y75.602 E20.69744
G1 X90.598 Y145.085 E24.16396
G1 X90.492 Y145.353 E24.17834
G1 X90.347 Y145.496 E24.1885
G1 X90.038 Y145.603 E24.20482
G1 X84.445 Y145.6 E24.48385
G1 X84.267 Y145.556 E24.493
G1 X84.017 Y145.362 E24.50879
G1 X83.898 Y145.07 E24.52452
G1 X83.897 Y47.603 E29.38717
G1 X75.603 Y47.603 E29.80096
G1 X75.603 Y172.397 E36.02695
G0 F7500 X75.203 Y172.797
;TYPE:WALL-OUTER
G1 F1500 X144.797 Y172.797 E39.49901
G1 X144.797 Y47.203 E45.76492
G1 X135.703 Y47.203 E46.21862
G1 X135.7 Y145.037 E51.09958
G1 X135.663 Y145.123 E51.10425
G1 X135.545 Y145.202 E51.11134
G1 X129.963 Y145.2 E51.38983
G1 X129.83 Y145.111 E51.39781
G1 X129.799 Y145.03 E51.40214
G1 X129.798 Y75.202 E54.88587
G1 X90.202 Y75.202 E56.86132
G1 X90.201 Y145.037 E60.3454
G1 X90.155 Y145.134 E60.35076
G1 X90.044 Y145.203 E60.35728
G1 X84.48 Y145.202 E60.63487
G1 X84.337 Y145.122 E60.64304
G1 X84.3 Y145.036 E60.64772
G1 X84.297 Y47.203 E65.52862
G1 X75.203 Y47.203 E65.98232
G1 X75.203 Y172.797 E72.24823
G0 F7500 X75.403 Y172.797
G0 X75.963 Y172.037
;TYPE:SKIN
G1 F1500 X144.037 Y172.037 E75.64446
G1 X144.037 Y51.75 E81.6456
G1 X144.037 Y47.963 E81.83454
G1 X136.463 Y47.963 E82.21241
G1 X136.461 Y145.135 E87.06034
G1 X136.352 Y145.452 E87.07706
G1 X136.186 Y145.683 E87.09125
G1 X135.963 Y145.849 E87.10512
G1 X135.584 Y145.96 E87.12482
G1 X129.918 Y145.958 E87.4075
G1 X129.595 Y145.875 E87.42414
G1 X129.328 Y145.692 E87.44029
G1 X129.158 Y145.472 E87.45416
G1 X129.045 Y145.12 E87.4726
G1 X129.038 Y75.962 E90.92291
G1 X90.963 Y75.962 E92.82248
G1 X90.957 Y145.162 E96.27488
G1 X90.855 Y145.45 E96.29013
G1 X90.632 Y145.736 E96.30822
G1 X90.293 Y145.92 E96.32746
G1 X90.054 Y145.962 E96.33957
G1 X84.47 Y145.961 E96.61816
G1 X84.235 Y145.927 E96.63
G1 X84.019 Y145.837 E96.64168
G1 X83.815 Y145.68 E96.65452
G1 X83.646 Y145.448 E96.66884
G1 X83.54 Y145.132 E96.68547
G1 X83.537 Y47.963 E101.53325
G1 X75.963 Y47.963 E101.91112
G1 X75.963 Y172.037 E108.10119
G0 F7500 X76.235 Y171.836
G1 F1500 X76.162 Y171.763 E108.10634
G0 F7500 X76.162 Y171.197
G1 F1500 X76.8 Y171.836 E108.15139
G0 F7500 X77.366 Y171.836
G1 F1500 X76.162 Y170.631 E108.23638
G0 F7500 X76.162 Y170.066
G1 F1500 X77.932 Y171.836 E108.36126
G0 F7500 X78.498 Y171.836
G1 F1500 X76.162 Y169.5 E108.52608
G0 F7500 X76.162 Y168.934
G1 F1500 X79.063 Y171.836 E108.7308
G0 F7500 X79.629 Y171.836
G1 F1500 X76.162 Y168.369 E108.97541
G0 F7500 X76.162 Y167.803
G1 F1500 X80.195 Y171.836 E109.25996
G0 F7500 X80.76 Y171.836
G1 F1500 X76.162 Y167.237 E109.58441
G0 F7500 X76.162 Y166.672
G1 F1500 X81.326 Y171.836 E109.94876
G0 F7500 X81.892 Y171.836
G1 F1500 X76.162 Y166.106 E110.35304
G0 F7500 X76.162 Y165.54
G1 F1500 X82.457 Y171.836 E110.79722
G0 F7500 X83.023 Y171.836
G1 F1500 X76.162 Y164.975 E111.2813
G0 F7500 X76.162 Y164.409
G1 F1500 X83.589 Y171.836 E111.80532
G0 F7500 X84.154 Y171.836
G1 F1500 X76.162 Y163.843 E112.36923
G0 F7500 X76.162 Y163.278
G1 F1500 X84.72 Y171.836 E112.97304
G0 F7500 X85.286 Y171.836
G1 F1500 X76.162 Y162.712 E113.61679
G0 F7500 X76.162 Y162.146
G1 F1500 X85.851 Y171.836 E114.30044
G0 F7500 X86.417 Y171.836
G1 F1500 X76.162 Y161.58 E115.02402
G0 F7500 X76.162 Y161.015
G1 F1500 X86.983 Y171.836 E115.7875
G0 F7500 X87.549 Y171.836
G1 F1500 X76.162 Y160.449 E116.59091
G0 F7500 X76.162 Y159.883
G1 F1500 X88.114 Y171.836 E117.43423
G0 F7500 X88.68 Y171.836
G1 F1500 X76.162 Y159.318 E118.31744
G0 F7500 X76.162 Y158.752
G1 F1500 X89.246 Y171.836 E119.24059
G0 F7500 X89.811 Y171.836
G1 F1500 X76.162 Y158.186 E120.20363
G0 F7500 X76.162 Y157.621
G1 F1500 X90.377 Y171.836 E121.20658
G0 F7500 X90.943 Y171.836
G1 F1500 X76.162 Y157.055 E122.24946
G0 F7500 X76.162 Y156.489
G1 F1500 X91.508 Y171.836 E123.33224
G0 F7500 X92.074 Y171.836
G1 F1500 X76.162 Y155.924 E124.45491
G0 F7500 X76.162 Y155.358
G1 F1500 X92.64 Y171.836 E125.61753
G0 F7500 X93.205 Y171.836
G1 F1500 X76.162 Y154.792 E126.82004
G0 F7500 X76.162 Y154.227
G1 F1500 X93.771 Y171.836 E128.06245
G0 F7500 X94.337 Y171.836
G1 F1500 X76.162 Y153.661 E129.34479
G0 F7500 X76.162 Y153.095
G1 F1500 X94.902 Y171.836 E130.66703
G0 F7500 X95.468 Y171.836
G1 F1500 X76.162 Y152.53 E132.02918
G0 F7500 X76.162 Y151.964
G1 F1500 X96.034 Y171.836 E133.43125
G0 F7500 X96.599 Y171.836
G1 F1500 X76.162 Y151.398 E134.87323
G0 F7500 X76.162 Y150.832
G1 F1500 X97.165 Y171.836 E136.35514
G0 F7500 X97.731 Y171.836
G1 F1500 X76.162 Y150.267 E137.87695
G0 F7500 X76.162 Y149.701
G1 F1500 X98.297 Y171.836 E139.43869
G0 F7500 X98.862 Y171.836
G1 F1500 X76.162 Y149.135 E141.04034
G0 F7500 X76.162 Y148.57
G1 F1500 X99.428 Y171.836 E142.68188
G0 F7500 X99.994 Y171.836
G1 F1500 X76.162 Y148.004 E144.36335
G0 F7500 X76.162 Y147.438
G1 F1500 X100.559 Y171.836 E146.08473
G0 F7500 X101.125 Y171.836
G1 F1500 X76.162 Y146.873 E147.846
G0 F7500 X76.162 Y146.307
G1 F1500 X101.691 Y171.836 E149.64721
G0 F7500 X102.256 Y171.836
G1 F1500 X76.162 Y145.741 E151.48832
G0 F7500 X76.162 Y145.176
G1 F1500 X102.822 Y171.836 E153.36933
G0 F7500 X103.388 Y171.836
G1 F1500 X76.162 Y144.61 E155.29027
G0 F7500 X76.162 Y144.044
G1 F1500 X103.953 Y171.836 E157.25111
G0 F7500 X104.519 Y171.836
G1 F1500 X76.162 Y143.479 E159.25185
G0 F7500 X76.162 Y142.913
G1 F1500 X105.085 Y171.836 E161.29252
G0 F7500 X105.65 Y171.836
G1 F1500 X76.162 Y142.347 E163.3731
G0 F7500 X76.162 Y141.781
G1 F1500 X106.216 Y171.836 E165.4936
G0 F7500 X106.782 Y171.836
G1 F1500 X76.162 Y141.216 E167.65401
G0 F7500 X76.162 Y140.65
G1 F1500 X107.348 Y171.836 E169.85435
G0 F7500 X107.913 Y171.836
G1 F1500 X76.162 Y140.084 E172.09459
G0 F7500 X76.162 Y139.519
G1 F1500 X108.479 Y171.836 E174.37473
G0 F7500 X109.045 Y171.836
G1 F1500 X76.162 Y138.953 E176.6948
G0 F7500 X76.162 Y138.387
G1 F1500 X109.61 Y171.836 E179.05477
G0 F7500 X110.176 Y171.836
G1 F1500 X84.499 Y146.158 E180.86646
G0 F7500 X85.064 Y146.158
G1 F1500 X110.742 Y171.836 E182.67818
G0 F7500 X111.307 Y171.836
G1 F1500 X85.63 Y146.158 E184.48987
G0 F7500 X86.197 Y146.159
G1 F1500 X111.873 Y171.836 E186.30148
G0 F7500 X112.439 Y171.836
G1 F1500 X86.762 Y146.159 E188.11314
G0 F7500 X87.329 Y146.16
G1 F1500 X113.004 Y171.836 E189.92468
G0 F7500 X113.57 Y171.836
G1 F1500 X87.894 Y146.16 E191.73626
G0 F7500 X88.46 Y146.16
G1 F1500 X114.136 Y171.836 E193.54784
G0 F7500 X114.701 Y171.836
G1 F1500 X89.026 Y146.161 E195.35935
G0 F7500 X89.592 Y146.161
G1 F1500 X115.267 Y171.836 E197.17086
G0 F7500 X115.833 Y171.836
G1 F1500 X90.144 Y146.147 E198.98336
G0 F7500 X90.561 Y145.999
G1 F1500 X116.398 Y171.836 E200.8063
G0 F7500 X116.964 Y171.836
G1 F1500 X90.875 Y145.747 E202.64702
G0 F7500 X91.087 Y145.393
G1 F1500 X117.53 Y171.836 E204.51272
G0 F7500 X118.096 Y171.836
G1 F1500 X91.16 Y144.9 E206.4132
G0 F7500 X91.16 Y144.334
G1 F1500 X118.661 Y171.836 E208.35358
G0 F7500 X119.227 Y171.836
G1 F1500 X91.16 Y143.768 E210.33389
G0 F7500 X91.16 Y143.203
G1 F1500 X119.793 Y171.836 E212.3541
G0 F7500 X120.358 Y171.836
G1 F1500 X91.16 Y142.637 E214.41421
G0 F7500 X91.16 Y142.071
G1 F1500 X120.924 Y171.836 E216.51426
G0 F7500 X121.49 Y171.836
G1 F1500 X91.16 Y141.506 E218.65421
G0 F7500 X91.16 Y140.94
G1 F1500 X122.055 Y171.836 E220.83405
G0 F7500 X122.621 Y171.836
G1 F1500 X91.16 Y140.374 E223.05383
G0 F7500 X91.16 Y139.809
G1 F1500 X123.187 Y171.836 E225.31351
G0 F7500 X123.752 Y171.836
G1 F1500 X91.16 Y139.243 E227.61308
G0 F7500 X91.16 Y138.677
G1 F1500 X124.318 Y171.836 E229.95259
G0 F7500 X124.884 Y171.836
G1 F1500 X91.16 Y138.112 E232.332
G0 F7500 X91.16 Y137.546
G1 F1500 X125.449 Y171.836 E234.75131
G0 F7500 X126.015 Y171.836
G1 F1500 X91.16 Y136.98 E237.21056
G0 F7500 X91.16 Y136.415
G1 F1500 X126.581 Y171.836 E239.7097
G0 F7500 X127.146 Y171.836
G1 F1500 X91.16 Y135.849 E242.24874
G0 F7500 X91.16 Y135.283
G1 F1500 X127.712 Y171.836 E244.82772
G0 F7500 X128.278 Y171.836
G1 F1500 X91.16 Y134.717 E247.44663
G0 F7500 X91.16 Y134.152
G1 F1500 X128.844 Y171.836 E250.10544
G0 F7500 X129.409 Y171.836
G1 F1500 X91.16 Y133.586 E252.80415
G0 F7500 X91.16 Y133.02
G1 F1500 X129.975 Y171.836 E255.54279
G0 F7500 X130.541 Y171.836
G1 F1500 X91.16 Y132.455 E258.32133
G0 F7500 X91.16 Y131.889
G1 F1500 X131.106 Y171.836 E261.13978
G0 F7500 X131.672 Y171.836
G1 F1500 X91.16 Y131.323 E263.99815
G0 F7500 X91.16 Y130.758
G1 F1500 X132.238 Y171.836 E266.89643
G0 F7500 X132.803 Y171.836
G1 F1500 X91.16 Y130.192 E269.8346
G0 F7500 X91.16 Y129.626
G1 F1500 X133.369 Y171.836 E272.81271
G0 F7500 X133.935 Y171.836
G1 F1500 X91.16 Y129.061 E275.83071
G0 F7500 X91.16 Y128.495
G1 F1500 X134.5 Y171.836 E278.88862
G0 F7500 X135.066 Y171.836
G1 F1500 X91.16 Y127.929 E281.98646
G0 F7500 X91.16 Y127.364
G1 F1500 X135.632 Y171.836 E285.1242
G0 F7500 X136.197 Y171.836
G1 F1500 X91.16 Y126.798 E288.30184
G0 F7500 X91.16 Y126.232
G1 F1500 X136.763 Y171.836 E291.51941
G0 F7500 X137.329 Y171.836
G1 F1500 X91.16 Y125.667 E294.77689
G0 F7500 X91.16 Y125.101
G1 F1500 X137.895 Y171.836 E298.07429
G0 F7500 X138.46 Y171.836
G1 F1500 X91.16 Y124.535 E301.4116
G0 F7500 X91.16 Y123.969
G1 F1500 X139.026 Y171.836 E304.78884
G0 F7500 X139.592 Y171.836
G1 F1500 X91.16 Y123.404 E308.20598
G0 F7500 X91.16 Y122.838
G1 F1500 X140.157 Y171.836 E311.66302
G0 F7500 X140.723 Y171.836
G1 F1500 X91.16 Y122.272 E315.15999
G0 F7500 X91.16 Y121.707
G1 F1500 X141.289 Y171.836 E318.69686
G0 F7500 X141.854 Y171.836
G1 F1500 X91.16 Y121.142 E322.2736
G0 F7500 X91.16 Y120.576
G1 F1500 X142.42 Y171.836 E325.89027
G0 F7500 X142.986 Y171.836
G1 F1500 X91.16 Y120.01 E329.54687
G0 F7500 X91.16 Y119.445
G1 F1500 X143.551 Y171.836 E333.24334
G0 F7500 X143.837 Y171.556
G1 F1500 X91.16 Y118.879 E336.95998
G0 F7500 X91.16 Y118.313
G1 F1500 X143.837 Y170.99 E340.67663
G0 F7500 X143.837 Y170.424
G1 F1500 X91.16 Y117.748 E344.39324
G0 F7500 X91.16 Y117.182
G1 F1500 X143.837 Y169.859 E348.10989
G0 F7500 X143.837 Y169.293
G1 F1500 X91.16 Y116.616 E351.82654
G0 F7500 X91.16 Y116.051
G1 F1500 X143.837 Y168.727 E355.54315
G0 F7500 X143.837 Y168.162
G1 F1500 X91.16 Y115.485 E359.2598
G0 F7500 X91.16 Y114.919
G1 F1500 X143.837 Y167.596 E362.97644
G0 F7500 X143.837 Y167.03
G1 F1500 X91.16 Y114.354 E366.69305
G0 F7500 X91.16 Y113.788
G1 F1500 X143.837 Y166.464 E370.40967
G0 F7500 X143.837 Y165.899
G1 F1500 X91.16 Y113.222 E374.12631
G0 F7500 X91.16 Y112.656
G1 F1500 X143.837 Y165.333 E377.84296
G0 F7500 X143.837 Y164.767
G1 F1500 X91.16 Y112.091 E381.55957
G0 F7500 X91.16 Y111.525
G1 F1500 X143.837 Y164.202 E385.27622
G0 F7500 X143.837 Y163.636
G1 F1500 X91.16 Y110.959 E388.99286
G0 F7500 X91.16 Y110.394
G1 F1500 X143.837 Y163.07 E392.70948
G0 F7500 X143.837 Y162.505
G1 F1500 X91.16 Y109.828 E396.42612
G0 F7500 X91.16 Y109.262
G1 F1500 X143.837 Y161.939 E400.14277
G0 F7500 X143.837 Y161.373
G1 F1500 X91.16 Y108.697 E403.85938
G0 F7500 X91.16 Y108.131
G1 F1500 X143.837 Y160.808 E407.57603
G0 F7500 X143.837 Y160.242
G1 F1500 X129.705 Y146.11 E408.57312
G0 F7500 X130.316 Y146.156
G1 F1500 X143.837 Y159.676 E409.52706
G0 F7500 X143.837 Y159.111
G1 F1500 X130.882 Y146.156 E410.44111
G0 F7500 X131.449 Y146.156
G1 F1500 X143.837 Y158.545 E411.31518
G0 F7500 X143.837 Y157.979
G1 F1500 X132.014 Y146.156 E412.14936
G0 F7500 X132.58 Y146.156
G1 F1500 X143.837 Y157.413 E412.9436
G0 F7500 X143.837 Y156.848
G1 F1500 X133.146 Y146.157 E413.69791
G0 F7500 X133.712 Y146.157
G1 F1500 X143.837 Y156.282 E414.41228
G0 F7500 X143.837 Y155.716
G1 F1500 X134.278 Y146.158 E415.08669
G0 F7500 X134.844 Y146.158
G1 F1500 X143.837 Y155.151 E415.72119
G0 F7500 X143.837 Y154.585
G1 F1500 X135.41 Y146.158 E416.31576
G0 F7500 X135.893 Y146.076
G1 F1500 X143.837 Y154.019 E416.87622
G0 F7500 X143.837 Y153.454
G1 F1500 X136.26 Y145.876 E417.41085
G0 F7500 X136.514 Y145.565
G1 F1500 X143.837 Y152.888 E417.92753
G0 F7500 X143.837 Y152.322
G1 F1500 X136.658 Y145.143 E418.43405
G0 F7500 X136.658 Y144.577
G1 F1500 X143.837 Y151.757 E418.9406
G0 F7500 X143.837 Y151.191
G1 F1500 X136.658 Y144.012 E419.44712
G0 F7500 X136.658 Y143.446
G1 F1500 X143.837 Y150.625 E419.95363
G0 F7500 X143.837 Y150.06
G1 F1500 X136.658 Y142.88 E420.46019
G0 F7500 X136.658 Y142.315
G1 F1500 X143.837 Y149.494 E420.9667
G0 F7500 X143.837 Y148.928
G1 F1500 X136.658 Y141.749 E421.47322
G0 F7500 X136.658 Y141.183
G1 F1500 X143.837 Y148.363 E421.97977
G0 F7500 X143.837 Y147.797
G1 F1500 X136.658 Y140.618 E422.48629
G0 F7500 X136.658 Y140.052
G1 F1500 X143.837 Y147.231 E422.99281
G0 F7500 X143.837 Y146.665
G1 F1500 X136.658 Y139.486 E423.49932
G0 F7500 X136.658 Y138.921
G1 F1500 X143.837 Y146.1 E424.00584
G0 F7500 X143.837 Y145.534
G1 F1500 X136.658 Y138.355 E424.51236
G0 F7500 X136.658 Y137.789
G1 F1500 X143.837 Y144.968 E425.01888
G0 F7500 X143.837 Y144.403
G1 F1500 X136.658 Y137.223 E425.52543
G0 F7500 X136.658 Y136.658
G1 F1500 X143.837 Y143.837 E426.03195
G0 F7500 X143.837 Y143.271
G1 F1500 X136.658 Y136.092 E426.53846
G0 F7500 X136.658 Y135.526
G1 F1500 X143.837 Y142.706 E427.04502
G0 F7500 X143.837 Y142.14
G1 F1500 X136.658 Y134.961 E427.55153
G0 F7500 X136.658 Y134.395
G1 F1500 X143.837 Y141.574 E428.05805
G0 F7500 X143.837 Y141.009
G1 F1500 X136.658 Y133.829 E428.5646
G0 F7500 X136.658 Y133.264
G1 F1500 X143.837 Y140.443 E429.07112
G0 F7500 X143.837 Y139.877
G1 F1500 X136.658 Y132.698 E429.57764
G0 F7500 X136.658 Y132.132
G1 F1500 X143.837 Y139.312 E430.08419
G0 F7500 X143.837 Y138.746
G1 F1500 X136.658 Y131.567 E430.59071
G0 F7500 X136.658 Y131.001
G1 F1500 X143.837 Y138.18 E431.09722
G0 F7500 X143.837 Y137.615
G1 F1500 X136.658 Y130.435 E431.60378
G0 F7500 X136.658 Y129.87
G1 F1500 X143.837 Y137.049 E432.11029
G0 F7500 X143.837 Y136.483
G1 F1500 X136.658 Y129.304 E432.61681
G0 F7500 X136.658 Y128.738
G1 F1500 X143.837 Y135.917 E433.12333
G0 F7500 X143.837 Y135.352
G1 F1500 X136.658 Y128.173 E433.62985
G0 F7500 X136.658 Y127.607
G1 F1500 X143.837 Y134.786 E434.13636
G0 F7500 X143.837 Y134.22
G1 F1500 X136.658 Y127.041 E434.64288
G0 F7500 X136.658 Y126.475
G1 F1500 X143.837 Y133.655 E435.14943
G0 F7500 X143.837 Y133.089
G1 F1500 X136.658 Y125.91 E435.65595
G0 F7500 X136.658 Y125.345
G1 F1500 X143.837 Y132.523 E436.16243
G0 F7500 X143.837 Y131.958
G1 F1500 X136.658 Y124.779 E436.66895
G0 F7500 X136.658 Y124.213
G1 F1500 X143.837 Y131.392 E437.17547
G0 F7500 X143.837 Y130.826
G1 F1500 X136.658 Y123.648 E437.68195
G0 F7500 X136.658 Y123.082
G1 F1500 X143.837 Y130.261 E438.18846
G0 F7500 X143.837 Y129.695
G1 F1500 X136.658 Y122.516 E438.69498
G0 F7500 X136.658 Y121.951
G1 F1500 X143.837 Y129.129 E439.20146
G0 F7500 X143.837 Y128.564
G1 F1500 X136.658 Y121.385 E439.70798
G0 F7500 X136.658 Y120.819
G1 F1500 X143.837 Y127.998 E440.2145
G0 F7500 X143.837 Y127.432
G1 F1500 X136.658 Y120.254 E440.72098
G0 F7500 X136.658 Y119.688
G1 F1500 X143.837 Y126.866 E441.22746
G0 F7500 X143.837 Y126.301
G1 F1500 X136.658 Y119.122 E441.73398
G0 F7500 X136.658 Y118.557
G1 F1500 X143.837 Y125.735 E442.24046
G0 F7500 X143.837 Y125.169
G1 F1500 X136.658 Y117.991 E442.74694
G0 F7500 X136.658 Y117.425
G1 F1500 X143.837 Y124.604 E443.25346
G0 F7500 X143.837 Y124.038
G1 F1500 X136.658 Y116.86 E443.75994
G0 F7500 X136.658 Y116.294
G1 F1500 X143.837 Y123.472 E444.26642
G0 F7500 X143.837 Y122.907
G1 F1500 X136.658 Y115.728 E444.77294
G0 F7500 X136.658 Y115.162
G1 F1500 X143.837 Y122.341 E445.27946
