;FLAVOR:Marlin
;TIME:45654
;Filament used: 43.557m
;Layer height: 0.2
;MINX:40.2
;MINY:45.2
;MINZ:0.3
;MAXX:179.8
;MAXY:174.8
;MAXZ:89.7
;Generated with Cura_SteamEngine 5.2.1
M140 S60
M105
M190 S60
M104 S200
M105
M109 S200
M82 ;absolute extrusion mode
G28 ;Home
G1 Z15.0 F2000 ;Move the platform
G92 E0
G92 E0
G1 F1500 E-6.5
;LAYER_COUNT:450
;LAYER:0
M107
M204 S1000
;MESH:Large Display Mount Base-Body.stl
G0 F7500 X60.242 Y67.959 Z0.3
;TYPE:WALL-INNER
G1 F1500 E0
G1 X59.652 Y67.93 E0.02947
G1 X59.068 Y67.813 E0.05919
G1 X58.98 Y67.778 E0.06391
G1 X58.531 Y67.559 E0.08883
G1 X58.055 Y67.218 E0.11805
G1 X57.735 Y66.893 E0.1408
G1 X57.412 Y66.423 E0.16925
G1 X57.197 Y65.941 E0.19558
G1 X57.046 Y65.292 E0.22883
G1 X57.084 Y64.547 E0.26604
G1 X57.178 Y64.134 E0.28718
G1 X57.338 Y63.722 E0.30923
G1 X57.641 Y63.2 E0.33934
G1 X58.051 Y62.786 E0.36841
G1 X58.513 Y62.452 E0.39685
G1 X59.057 Y62.185 E0.42708
G1 X59.783 Y62.041 E0.46401
G1 X60.392 Y62.076 E0.49444
G1 X60.961 Y62.191 E0.5234
G1 X61.485 Y62.451 E0.55259
G1 X61.949 Y62.785 E0.58111
G1 X62.257 Y63.098 E0.60302
G1 X62.512 Y63.453 E0.62482
G1 X62.774 Y63.988 E0.65454
G1 X62.92 Y64.555 E0.68375
G1 X62.956 Y65.273 E0.71962
G1 X62.826 Y65.855 E0.74937
G1 X62.662 Y66.274 E0.77182
G1 X62.37 Y66.786 E0.80123
G1 X61.95 Y67.214 E0.83114
G1 X61.471 Y67.563 E0.86071
G1 X60.938 Y67.801 E0.88983
G1 X60.242 Y67.959 E0.92544
G0 F7500 X60.212 Y67.555
;TYPE:WALL-OUTER
G1 F1500 X59.69 Y67.532 E0.95151
G1 X59.203 Y67.435 E0.97628
G1 X59.155 Y67.418 E0.97882
G1 X58.716 Y67.203 E1.00321
G1 X58.315 Y66.914 E1.02787
G1 X58.044 Y66.639 E1.04713
G1 X57.762 Y66.225 E1.07212
G1 X57.57 Y65.794 E1.09566
G1 X57.449 Y65.257 E1.12313
G1 X57.478 Y64.616 E1.15514
G1 X57.56 Y64.252 E1.17375
G1 X57.7 Y63.896 E1.19284
G1 X57.95 Y63.46 E1.21791
G1 X58.312 Y63.089 E1.24377
G1 X58.719 Y62.795 E1.26882
G1 X59.17 Y62.574 E1.29388
G1 X59.784 Y62.447 E1.32516
G1 X60.327 Y62.471 E1.35228
G1 X60.813 Y62.568 E1.377
G1 X61.279 Y62.794 E1.40284
G1 X61.687 Y63.088 E1.42793
G1 X61.951 Y63.358 E1.44677
G1 X62.174 Y63.667 E1.46578
G1 X62.397 Y64.127 E1.49128
G1 X62.521 Y64.605 E1.51592
G1 X62.554 Y65.246 E1.54794
G1 X62.436 Y65.761 E1.5743
G1 X62.304 Y66.095 E1.59222
G1 X62.039 Y66.554 E1.61866
G1 X61.688 Y66.912 E1.64367
G1 X61.267 Y67.215 E1.66955
G1 X60.814 Y67.418 E1.69432
G1 X60.212 Y67.555 E1.72512
G0 F7500 X60.012 Y67.547
G1 F1500 E-4.77488
G0 F7500 X59.988 Y68.047
G0 X60.441 Y151.902
G0 X61.476 Y157.56
;TYPE:WALL-INNER
G1 F1500 E1.72512
G1 X60.943 Y157.799 E1.75426
G1 X60.253 Y157.957 E1.78958
G1 X59.606 Y157.924 E1.8219
G1 X59.058 Y157.814 E1.84978
G1 X58.515 Y157.549 E1.87993
G1 X58.053 Y157.217 E1.90831
G1 X57.735 Y156.893 E1.93096
G1 X57.412 Y156.423 E1.95941
G1 X57.197 Y155.941 E1.98574
G1 X57.18 Y155.883 E1.98876
G1 X57.046 Y155.291 E2.01904
G1 X57.084 Y154.547 E2.05621
G1 X57.178 Y154.134 E2.07734
G1 X57.338 Y153.722 E2.09939
G1 X57.641 Y153.2 E2.1295
G1 X58.052 Y152.785 E2.15864
G1 X58.5 Y152.46 E2.18625
G1 X59.062 Y152.184 E2.21749
G1 X59.786 Y152.041 E2.25431
G1 X60.385 Y152.075 E2.28424
G1 X60.957 Y152.19 E2.31335
G1 X61.463 Y152.438 E2.34146
G1 X61.949 Y152.782 E2.37117
G1 X62.249 Y153.091 E2.39266
G1 X62.523 Y153.466 E2.41583
G1 X62.776 Y153.999 E2.44526
G1 X62.921 Y154.559 E2.47412
G1 X62.956 Y155.276 E2.50994
G1 X62.818 Y155.882 E2.54094
G1 X62.661 Y156.277 E2.56215
G1 X62.367 Y156.789 E2.59161
G1 X61.949 Y157.215 E2.62138
G1 X61.476 Y157.56 E2.65059
G0 F7500 X61.255 Y157.221
;TYPE:WALL-OUTER
G1 F1500 X60.813 Y157.418 E2.67473
G1 X60.219 Y157.554 E2.70513
G1 X59.67 Y157.529 E2.73255
G1 X59.17 Y157.425 E2.75803
G1 X58.721 Y157.206 E2.78295
G1 X58.314 Y156.913 E2.80797
G1 X58.044 Y156.639 E2.82717
G1 X57.762 Y156.225 E2.85216
G1 X57.57 Y155.794 E2.8757
G1 X57.449 Y155.257 E2.90316
G1 X57.478 Y154.616 E2.93517
G1 X57.56 Y154.252 E2.95379
G1 X57.7 Y153.896 E2.97287
G1 X57.95 Y153.46 E2.99795
G1 X58.312 Y153.089 E3.02381
G1 X58.725 Y152.792 E3.04919
G1 X59.174 Y152.572 E3.07413
G1 X59.805 Y152.445 E3.10624
G1 X60.327 Y152.471 E3.13232
G1 X60.833 Y152.575 E3.15809
G1 X61.293 Y152.803 E3.1837
G1 X61.679 Y153.081 E3.20744
G1 X61.96 Y153.369 E3.22751
G1 X62.186 Y153.688 E3.24701
G1 X62.398 Y154.13 E3.27147
G1 X62.522 Y154.613 E3.29635
G1 X62.552 Y155.242 E3.32777
G1 X62.444 Y155.735 E3.35295
G1 X62.3 Y156.104 E3.37271
G1 X62.053 Y156.535 E3.39749
G1 X61.687 Y156.912 E3.4237
G1 X61.255 Y157.221 E3.4502
G0 F7500 X61.072 Y157.302
G1 F1500 E-3.0498
G0 F7500 X61.28 Y157.759
G0 X62.014 Y157.393
G0 X157.291 Y156.567
G0 X157.746 Y156.905
;TYPE:WALL-INNER
G1 F1500 E3.4502
G1 X157.421 Y156.434 E3.47875
G1 X157.194 Y155.939 E3.50592
G1 X157.044 Y155.281 E3.53959
G1 X157.08 Y154.578 E3.57471
G1 X157.174 Y154.147 E3.59672
G1 X157.327 Y153.75 E3.61794
G1 X157.631 Y153.21 E3.64886
G1 X158.04 Y152.795 E3.67793
G1 X158.536 Y152.439 E3.70839
G1 X159.05 Y152.188 E3.73693
G1 X159.754 Y152.045 E3.77277
G1 X160.346 Y152.07 E3.80233
G1 X160.939 Y152.185 E3.83246
G1 X161.498 Y152.459 E3.86352
G1 X161.947 Y152.784 E3.89118
G1 X162.257 Y153.098 E3.91319
G1 X162.521 Y153.467 E3.93583
G1 X162.772 Y153.989 E3.96472
G1 X162.918 Y154.554 E3.99384
G1 X162.954 Y155.287 E4.03045
G1 X162.822 Y155.868 E4.06018
G1 X162.66 Y156.278 E4.08217
G1 X162.378 Y156.768 E4.11038
G1 X162.314 Y156.846 E4.11541
G1 X161.949 Y157.215 E4.1413
G1 X161.476 Y157.56 E4.17051
G1 X160.943 Y157.799 E4.19965
G1 X160.253 Y157.957 E4.23497
G1 X159.606 Y157.924 E4.26729
G1 X159.058 Y157.814 E4.29518
G1 X158.515 Y157.549 E4.32532
G1 X158.053 Y157.217 E4.3537
G1 X157.746 Y156.905 E4.37554
G0 F7500 X158.048 Y156.643
;TYPE:WALL-OUTER
G1 F1500 X157.754 Y156.209 E4.40169
G1 X157.576 Y155.813 E4.42335
G1 X157.45 Y155.265 E4.45141
G1 X157.48 Y154.607 E4.48427
G1 X157.562 Y154.246 E4.50274
G1 X157.694 Y153.909 E4.52079
G1 X157.961 Y153.446 E4.54746
G1 X158.326 Y153.078 E4.57332
G1 X158.723 Y152.793 E4.5977
G1 X159.181 Y152.57 E4.62311
G1 X159.792 Y152.446 E4.65422
G1 X160.308 Y152.468 E4.67999
G1 X160.806 Y152.566 E4.70531
G1 X161.284 Y152.797 E4.73179
G1 X161.687 Y153.088 E4.75659
G1 X161.96 Y153.369 E4.77614
G1 X162.168 Y153.657 E4.79386
G1 X162.389 Y154.109 E4.81896
G1 X162.522 Y154.614 E4.84502
G1 X162.552 Y155.235 E4.87604
G1 X162.44 Y155.75 E4.90233
G1 X162.3 Y156.104 E4.92132
G1 X162.05 Y156.54 E4.9464
G1 X161.687 Y156.912 E4.97233
G1 X161.255 Y157.221 E4.99883
G1 X160.813 Y157.418 E5.02297
G1 X160.219 Y157.554 E5.05337
G1 X159.67 Y157.529 E5.08079
G1 X159.17 Y157.425 E5.10627
G1 X158.721 Y157.206 E5.13119
G1 X158.314 Y156.913 E5.15621
G1 X158.048 Y156.643 E5.17512
G0 F7500 X157.936 Y156.478
G1 F1500 E-1.32488
G0 F7500 X157.521 Y156.762
G0 X159.556 Y158.098
G0 X167.478 Y174.2
G0 X169.991 Y174.4
;TYPE:WALL-INNER
G1 F1500 E5.17512
G1 X170.453 Y174.388 E5.19818
G1 X170.919 Y174.354 E5.22149
G1 X171.371 Y174.299 E5.2442
G1 X171.831 Y174.219 E5.2675
G1 X172.283 Y174.116 E5.29063
G1 X172.709 Y174 E5.31265
G1 X173.166 Y173.85 E5.33665
G1 X173.595 Y173.684 E5.3596
G1 X174.018 Y173.497 E5.38267
G1 X174.431 Y173.288 E5.40577
G1 X174.831 Y173.062 E5.42869
G1 X175.214 Y172.82 E5.45129
G1 X175.598 Y172.549 E5.47474
G1 X175.963 Y172.264 E5.49784
G1 X176.311 Y171.965 E5.52073
G1 X176.647 Y171.645 E5.54388
G1 X176.965 Y171.313 E5.56682
G1 X177.266 Y170.963 E5.58985
G1 X177.549 Y170.6 E5.61281
G1 X177.815 Y170.223 E5.63583
G1 X178.06 Y169.834 E5.65877
G1 X178.289 Y169.43 E5.68193
G1 X178.497 Y169.019 E5.70491
G1 X178.684 Y168.597 E5.72794
G1 X178.85 Y168.167 E5.75094
G1 X178.999 Y167.717 E5.77459
G1 X179.116 Y167.285 E5.79692
G1 X179.219 Y166.832 E5.82009
G1 X179.3 Y166.372 E5.8434
G1 X179.354 Y165.921 E5.86606
G1 X179.388 Y165.469 E5.88867
G1 X179.4 Y164.999 E5.91213
G1 X179.4 Y55.127 E11.39366
G1 X179.388 Y54.547 E11.42261
G1 X179.354 Y54.079 E11.44602
G1 X179.299 Y53.629 E11.46863
G1 X179.219 Y53.167 E11.49203
G1 X179.116 Y52.717 E11.51506
G1 X179 Y52.291 E11.53709
G1 X178.85 Y51.834 E11.56108
G1 X178.684 Y51.403 E11.58412
G1 X178.497 Y50.983 E11.60706
G1 X178.288 Y50.569 E11.6302
G1 X178.062 Y50.169 E11.65312
G1 X177.82 Y49.786 E11.67572
G1 X177.549 Y49.402 E11.69917
G1 X177.264 Y49.037 E11.72227
G1 X176.965 Y48.689 E11.74516
G1 X176.645 Y48.353 E11.76831
G1 X176.313 Y48.035 E11.79125
G1 X175.963 Y47.734 E11.81428
G1 X175.6 Y47.451 E11.83724
G1 X175.225 Y47.187 E11.86012
G1 X174.833 Y46.94 E11.88324
G1 X174.43 Y46.711 E11.90636
G1 X174.019 Y46.503 E11.92935
G1 X173.597 Y46.316 E11.95237
G1 X173.167 Y46.15 E11.97537
G1 X172.717 Y46.001 E11.99902
G1 X172.285 Y45.884 E12.02135
G1 X171.832 Y45.781 E12.04452
G1 X171.372 Y45.7 E12.06783
G1 X170.921 Y45.646 E12.09049
G1 X170.469 Y45.612 E12.1131
G1 X169.999 Y45.6 E12.13656
G1 X50.009 Y45.6 E18.12288
G1 X49.54 Y45.612 E18.14629
G1 X49.081 Y45.646 E18.16925
G1 X48.629 Y45.701 E18.19197
G1 X48.176 Y45.78 E18.21491
G1 X47.724 Y45.883 E18.23804
G1 X47.291 Y46 E18.26042
G1 X46.841 Y46.148 E18.28405
G1 X46.412 Y46.314 E18.307
G1 X45.988 Y46.5 E18.3301
G1 X45.575 Y46.709 E18.35319
G1 X45.174 Y46.935 E18.37616
G1 X44.786 Y47.181 E18.39908
G1 X44.407 Y47.448 E18.42221
G1 X44.042 Y47.732 E18.44528
G1 X43.693 Y48.031 E18.46821
G1 X43.358 Y48.35 E18.49128
G1 X43.039 Y48.683 E18.51429
G1 X42.738 Y49.033 E18.53732
G1 X42.454 Y49.395 E18.56028
G1 X42.189 Y49.772 E18.58327
G1 X41.94 Y50.167 E18.60656
G1 X41.714 Y50.564 E18.62935
G1 X41.506 Y50.975 E18.65233
G1 X41.319 Y51.398 E18.67541
G1 X41.151 Y51.827 E18.69839
G1 X41.003 Y52.276 E18.72198
G1 X40.884 Y52.715 E18.74467
G1 X40.782 Y53.161 E18.7675
G1 X40.7 Y53.628 E18.79115
G1 X40.646 Y54.079 E18.81381
G1 X40.612 Y54.531 E18.83643
G1 X40.6 Y55.008 E18.86023
G1 X40.6 Y164.991 E24.34731
G1 X40.612 Y165.46 E24.37071
G1 X40.646 Y165.919 E24.39368
G1 X40.701 Y166.371 E24.41639
G1 X40.78 Y166.824 E24.43933
G1 X40.883 Y167.276 E24.46246
G1 X41.001 Y167.709 E24.48485
G1 X41.148 Y168.159 E24.50847
G1 X41.314 Y168.588 E24.53142
G1 X41.501 Y169.013 E24.55458
G1 X41.707 Y169.423 E24.57748
G1 X41.934 Y169.825 E24.60051
G1 X42.181 Y170.214 E24.6235
G1 X42.448 Y170.593 E24.64663
G1 X42.73 Y170.956 E24.66956
G1 X43.031 Y171.307 E24.69263
G1 X43.35 Y171.642 E24.71571
G1 X43.683 Y171.961 E24.73871
G1 X44.031 Y172.26 E24.7616
G1 X44.395 Y172.546 E24.7847
G1 X44.77 Y172.809 E24.80755
G1 X45.167 Y173.061 E24.83101
G1 X45.564 Y173.286 E24.85378
G1 X45.975 Y173.494 E24.87676
G1 X46.398 Y173.681 E24.89983
G1 X46.827 Y173.849 E24.92282
G1 X47.276 Y173.997 E24.9464
G1 X47.715 Y174.116 E24.9691
G1 X48.161 Y174.218 E24.99192
G1 X48.628 Y174.3 E25.01558
G1 X49.079 Y174.354 E25.03824
G1 X49.531 Y174.388 E25.06085
G1 X50.008 Y174.4 E25.08466
G1 X169.991 Y174.4 E31.07063
G1 F1500 E24.57063
G0 F7500 X170.485 Y174.286
G0 X170.224 Y174.194
G0 X159.555 Y68.098
G0 X159.058 Y67.814
G1 F1500 E31.07063
G1 X158.489 Y67.533 E31.10229
G1 X158.042 Y67.207 E31.12989
G1 X157.736 Y66.894 E31.15173
G1 X157.412 Y66.419 E31.18042
G1 X157.191 Y65.933 E31.20705
G1 X157.044 Y65.28 E31.24045
G1 X157.078 Y64.597 E31.27457
G1 X157.173 Y64.151 E31.29732
G1 X157.339 Y63.724 E31.32017
G1 X157.633 Y63.211 E31.34967
G1 X158.051 Y62.786 E31.37941
G1 X158.513 Y62.452 E31.40785
G1 X159.057 Y62.185 E31.43809
G1 X159.783 Y62.041 E31.47501
G1 X160.392 Y62.076 E31.50544
G1 X160.961 Y62.191 E31.53441
G1 X161.485 Y62.451 E31.56359
G1 X161.949 Y62.785 E31.59211
G1 X162.258 Y63.098 E31.61406
G1 X162.521 Y63.467 E31.63666
G1 X162.772 Y63.989 E31.66556
G1 X162.918 Y64.554 E31.69467
G1 X162.952 Y65.251 E31.72949
G1 X162.944 Y65.33 E31.73345
G1 X162.822 Y65.868 E31.76097
G1 X162.66 Y66.278 E31.78297
G1 X162.373 Y66.783 E31.81195
G1 X161.95 Y67.217 E31.84218
G1 X161.455 Y67.569 E31.87248
G1 X160.91 Y67.807 E31.90215
G1 X160.234 Y67.959 E31.93672
G1 X159.634 Y67.928 E31.9667
G1 X159.058 Y67.814 E31.99599
G0 F7500 X159.167 Y67.424
;TYPE:WALL-OUTER
G1 F1500 X158.718 Y67.205 E32.02091
G1 X158.322 Y66.92 E32.04525
G1 X158.033 Y66.624 E32.06589
G1 X157.758 Y66.217 E32.0904
G1 X157.576 Y65.815 E32.11241
G1 X157.448 Y65.25 E32.14132
G1 X157.477 Y64.624 E32.17258
G1 X157.565 Y64.237 E32.19238
G1 X157.7 Y63.896 E32.21068
G1 X157.947 Y63.465 E32.23546
G1 X158.312 Y63.089 E32.26161
G1 X158.719 Y62.795 E32.28665
G1 X159.17 Y62.574 E32.31171
G1 X159.784 Y62.447 E32.34299
G1 X160.327 Y62.471 E32.37011
G1 X160.813 Y62.568 E32.39483
G1 X161.279 Y62.794 E32.42067
G1 X161.687 Y63.088 E32.44576
G1 X161.96 Y63.369 E32.46531
G1 X162.168 Y63.657 E32.48303
G1 X162.389 Y64.109 E32.50813
G1 X162.522 Y64.614 E32.53419
G1 X162.55 Y65.261 E32.5665
G1 X162.44 Y65.75 E32.5915
G1 X162.3 Y66.104 E32.61049
G1 X162.05 Y66.54 E32.63557
G1 X161.687 Y66.912 E32.6615
G1 X161.279 Y67.208 E32.68665
G1 X160.822 Y67.415 E32.71168
G1 X160.208 Y67.555 E32.7431
G1 X159.684 Y67.531 E32.76927
G1 X159.167 Y67.424 E32.79561
G0 F7500 X158.988 Y67.337
G1 F1500 E26.29561
G0 F7500 X158.772 Y67.79
G0 X158.389 Y67.683
G0 X50.745 Y174.199
G0 X49.511 Y174.788
G1 F1500 E32.79561
G1 X50.003 Y174.8 E32.82016
G1 X169.996 Y174.8 E38.80663
G1 X170.473 Y174.788 E38.83044
G1 X170.958 Y174.752 E38.8547
G1 X171.429 Y174.695 E38.87837
G1 X171.909 Y174.611 E38.90268
G1 X172.38 Y174.504 E38.92678
G1 X172.824 Y174.383 E38.94974
G1 X173.3 Y174.227 E38.97473
G1 X173.748 Y174.054 E38.99869
G1 X174.189 Y173.859 E39.02275
G1 X174.619 Y173.641 E39.0468
G1 X175.037 Y173.406 E39.07072
G1 X175.436 Y173.152 E39.09432
G1 X175.836 Y172.871 E39.11871
G1 X176.217 Y172.574 E39.14281
G1 X176.58 Y172.261 E39.16672
G1 X176.929 Y171.928 E39.19079
G1 X177.261 Y171.582 E39.21471
G1 X177.576 Y171.217 E39.23876
G1 X177.871 Y170.838 E39.26273
G1 X178.148 Y170.445 E39.28671
G1 X178.404 Y170.039 E39.31066
G1 X178.641 Y169.619 E39.33472
G1 X178.859 Y169.191 E39.35868
G1 X179.054 Y168.75 E39.38274
G1 X179.227 Y168.302 E39.4067
G1 X179.382 Y167.832 E39.43139
G1 X179.504 Y167.382 E39.45465
G1 X179.611 Y166.911 E39.47875
G1 X179.696 Y166.43 E39.50312
G1 X179.752 Y165.96 E39.52673
G1 X179.788 Y165.489 E39.5503
G1 X179.8 Y165.004 E39.5745
G1 X179.8 Y55.127 E45.05629
G1 X179.788 Y54.527 E45.08623
G1 X179.752 Y54.04 E45.11059
G1 X179.695 Y53.571 E45.13416
G1 X179.611 Y53.089 E45.15857
G1 X179.504 Y52.62 E45.18257
G1 X179.383 Y52.176 E45.20553
G1 X179.227 Y51.7 E45.23052
G1 X179.054 Y51.25 E45.25457
G1 X178.859 Y50.811 E45.27854
G1 X178.641 Y50.381 E45.30259
G1 X178.406 Y49.963 E45.32651
G1 X178.152 Y49.564 E45.35011
G1 X177.871 Y49.164 E45.3745
G1 X177.574 Y48.783 E45.3986
G1 X177.261 Y48.42 E45.42251
G1 X176.928 Y48.071 E45.44658
G1 X176.582 Y47.739 E45.4705
G1 X176.217 Y47.424 E45.49456
G1 X175.838 Y47.129 E45.51852
G1 X175.447 Y46.854 E45.54237
G1 X175.039 Y46.596 E45.56645
G1 X174.619 Y46.359 E45.59051
G1 X174.191 Y46.141 E45.61447
G1 X173.75 Y45.946 E45.63853
G1 X173.302 Y45.773 E45.66249
G1 X172.832 Y45.618 E45.68718
G1 X172.382 Y45.496 E45.71044
G1 X171.911 Y45.389 E45.73454
G1 X171.43 Y45.304 E45.75891
G1 X170.96 Y45.248 E45.78252
G1 X170.489 Y45.212 E45.80609
G1 X170.004 Y45.2 E45.83029
G1 X50.004 Y45.2 E51.81712
G1 X49.52 Y45.212 E51.84127
G1 X49.042 Y45.248 E51.86519
G1 X48.571 Y45.305 E51.88885
G1 X48.098 Y45.388 E51.91281
G1 X47.627 Y45.495 E51.93691
G1 X47.176 Y45.617 E51.96022
G1 X46.707 Y45.771 E51.98485
G1 X46.259 Y45.944 E52.00881
G1 X45.817 Y46.138 E52.03289
G1 X45.387 Y46.356 E52.05694
G1 X44.969 Y46.591 E52.08086
G1 X44.564 Y46.848 E52.1048
G1 X44.169 Y47.126 E52.12889
G1 X43.789 Y47.422 E52.15292
G1 X43.425 Y47.734 E52.17684
G1 X43.076 Y48.067 E52.20091
G1 X42.743 Y48.414 E52.2249
G1 X42.429 Y48.779 E52.24892
G1 X42.133 Y49.156 E52.27284
G1 X41.856 Y49.55 E52.29687
G1 X41.596 Y49.961 E52.32113
G1 X41.362 Y50.375 E52.34485
G1 X41.144 Y50.803 E52.36882
G1 X40.949 Y51.244 E52.39287
G1 X40.775 Y51.691 E52.4168
G1 X40.62 Y52.161 E52.4415
G1 X40.496 Y52.618 E52.46512
G1 X40.39 Y53.082 E52.48886
G1 X40.304 Y53.57 E52.51359
G1 X40.248 Y54.04 E52.5372
G1 X40.212 Y54.511 E52.56077
G1 X40.2 Y55.003 E52.58532
G1 X40.2 Y164.996 E58.07289
G1 X40.212 Y165.48 E58.09705
G1 X40.248 Y165.958 E58.12096
G1 X40.305 Y166.429 E58.14463
G1 X40.388 Y166.902 E58.16859
G1 X40.495 Y167.373 E58.19269
G1 X40.617 Y167.824 E58.216
G1 X40.771 Y168.293 E58.24063
