;FLAVOR:Marlin
;TIME:6491
;Filament used: 4.51021m
;Layer height: 0.2
;MINX:67.2
;MINY:84.77
;MINZ:0.3
;MAXX:152.8
;MAXY:126.37
;MAXZ:10.1
;Generated with Cura_SteamEngine 5.2.1
M140 S60
M105
M190 S60
M104 S200
M105
M109 S200
M82 ;absolute extrusion mode
G28 ;Home
G1 Z15.0 F2000 ;Move the platform
G92 E0
G92 E0
G1 F1500 E-6.5
;LAYER_COUNT:50
;LAYER:0
M107
M204 S1000
;MESH:Small Display Cover-Body.stl
G0 F7500 X68.075 Y125.495 Z0.3
;TYPE:WALL-INNER
G1 F1500 E0
G1 X151.925 Y125.495 E4.18329
G1 X151.925 Y89.237 E5.99221
G1 X151.925 Y85.645 E6.17142
G1 X68.075 Y85.645 E10.35471
G1 X68.075 Y125.495 E12.34284
G0 F7500 X67.675 Y125.895
;TYPE:WALL-OUTER
G1 F1500 X152.325 Y125.895 E16.56604
G1 X152.325 Y89.237 E18.39492
G1 X152.325 Y85.245 E18.59408
G1 X67.675 Y85.245 E22.81728
G1 X67.675 Y125.895 E24.84532
G0 F7500 X67.875 Y125.895
G1 F1500 E18.34532
G0 F7500 X67.945 Y125.625
G0 X145.554 Y125.295
G0 X145.45 Y120.601
G0 X145.554 Y120.412
;TYPE:WALL-INNER
G1 F1500 E24.84532
G1 X145.45 Y120.42 E24.85052
G1 X72.676 Y120.42 E28.48123
G1 X72.467 Y120.32 E28.49279
G1 X72.28 Y120.12 E28.50645
G1 X72.2 Y119.82 E28.52194
G1 X72.2 Y92.28 E29.89592
G1 X72.23 Y92.09 E29.90552
G1 X72.314 Y91.927 E29.91466
G1 X72.429 Y91.808 E29.92292
G1 X72.722 Y91.68 E29.93887
G1 X145.533 Y91.68 E33.57143
G1 X145.78 Y91.778 E33.58469
G1 X145.938 Y91.929 E33.59559
G1 X146.051 Y92.184 E33.6095
G1 X146.051 Y119.82 E34.98827
G1 X145.995 Y120.074 E35.00125
G1 X145.846 Y120.272 E35.01361
G1 X145.554 Y120.412 E35.02977
G0 F7500 X145.611 Y119.94
;TYPE:WALL-OUTER
G1 F1500 X145.485 Y120.018 E35.03716
G1 X72.756 Y120.02 E38.66562
G1 X72.602 Y119.902 E38.6753
G1 X72.6 Y92.23 E40.05586
G1 X72.676 Y92.122 E40.06245
G1 X72.765 Y92.082 E40.06732
G1 X145.49 Y92.083 E43.69559
G1 X145.651 Y92.218 E43.70607
G1 X145.646 Y119.864 E45.08533
G1 X145.611 Y119.94 E45.08951
G0 F7500 X145.485 Y120.018
G0 X145.433 Y120.018
G0 X145.616 Y120.778
;TYPE:SKIN
G1 F1500 X72.778 Y120.779 E48.72341
G1 X72.545 Y120.746 E48.73515
G1 X72.267 Y120.618 E48.75042
G1 X71.968 Y120.31 E48.77183
G1 X71.842 Y119.994 E48.78881
G1 X71.842 Y92.256 E50.17266
G1 X71.9 Y91.948 E50.1883
G1 X72.008 Y91.741 E50.19995
G1 X72.21 Y91.514 E50.21511
G1 X72.652 Y91.322 E50.23915
G1 X145.59 Y91.32 E53.87804
G1 X145.852 Y91.41 E53.89186
G1 X146.114 Y91.583 E53.90752
G1 X146.306 Y91.848 E53.92385
G1 X146.411 Y92.134 E53.93905
G1 X146.408 Y119.987 E55.32864
G1 X146.222 Y120.396 E55.35106
G1 X146.191 Y120.429 E55.35332
G1 X145.91 Y120.668 E55.37172
G1 X145.616 Y120.778 E55.38738
G1 F1500 E48.88738
G0 F7500 X145.575 Y120.511
G0 X72.801 Y120.601
G0 X68.275 Y120.601
G0 X68.435 Y125.135
G1 F1500 E55.38738
G1 X151.565 Y125.135 E59.53475
G1 X151.565 Y89.236 E61.32576
G1 X151.565 Y86.005 E61.48696
G1 X68.435 Y86.005 E65.63433
G1 X68.435 Y125.135 E67.58653
G0 F7500 X68.931 Y124.934
G1 F1500 X68.634 Y124.637 E67.60749
G0 F7500 X68.634 Y124.071
G1 F1500 X69.497 Y124.934 E67.66838
G0 F7500 X70.062 Y124.934
G1 F1500 X68.634 Y123.506 E67.76913
G0 F7500 X68.634 Y122.94
G1 F1500 X70.628 Y124.934 E67.90982
G0 F7500 X71.194 Y124.934
G1 F1500 X68.634 Y122.374 E68.09044
G0 F7500 X68.634 Y121.809
G1 F1500 X71.76 Y124.934 E68.31096
G0 F7500 X72.325 Y124.934
G1 F1500 X68.634 Y121.243 E68.57138
G0 F7500 X68.634 Y120.677
G1 F1500 X72.891 Y124.934 E68.87174
G0 F7500 X73.457 Y124.934
G1 F1500 X68.634 Y120.111 E69.21203
G0 F7500 X68.634 Y119.546
G1 F1500 X74.022 Y124.934 E69.59218
G0 F7500 X74.588 Y124.934
G1 F1500 X68.634 Y118.98 E70.01226
G0 F7500 X68.634 Y118.414
G1 F1500 X75.154 Y124.934 E70.47229
G0 F7500 X75.719 Y124.934
G1 F1500 X68.634 Y117.849 E70.97217
G0 F7500 X68.634 Y117.283
G1 F1500 X76.285 Y124.934 E71.51199
G0 F7500 X76.851 Y124.934
G1 F1500 X72.892 Y120.976 E71.79128
G0 F7500 X73.458 Y120.976
G1 F1500 X77.416 Y124.934 E72.07054
G0 F7500 X77.982 Y124.934
G1 F1500 X74.024 Y120.976 E72.3498
G0 F7500 X74.589 Y120.976
G1 F1500 X78.548 Y124.934 E72.62909
G0 F7500 X79.113 Y124.934
G1 F1500 X75.155 Y120.976 E72.90835
G0 F7500 X75.721 Y120.976
G1 F1500 X79.679 Y124.934 E73.18761
G0 F7500 X80.245 Y124.934
G1 F1500 X76.286 Y120.976 E73.4669
G0 F7500 X76.852 Y120.976
G1 F1500 X80.81 Y124.934 E73.74616
G0 F7500 X81.376 Y124.934
G1 F1500 X77.418 Y120.976 E74.02542
G0 F7500 X77.983 Y120.976
G1 F1500 X81.942 Y124.934 E74.30471
G0 F7500 X82.508 Y124.934
G1 F1500 X78.549 Y120.976 E74.58401
G0 F7500 X79.115 Y120.976
G1 F1500 X83.073 Y124.934 E74.86327
G0 F7500 X83.639 Y124.934
G1 F1500 X79.681 Y120.976 E75.14252
G0 F7500 X80.246 Y120.976
G1 F1500 X84.205 Y124.934 E75.42182
G0 F7500 X84.77 Y124.934
G1 F1500 X80.812 Y120.976 E75.70108
G0 F7500 X81.378 Y120.976
G1 F1500 X85.336 Y124.934 E75.98033
G0 F7500 X85.902 Y124.934
G1 F1500 X81.943 Y120.976 E76.25963
G0 F7500 X82.509 Y120.976
G1 F1500 X86.467 Y124.934 E76.53889
G0 F7500 X87.033 Y124.934
G1 F1500 X83.075 Y120.976 E76.81814
G0 F7500 X83.64 Y120.976
G1 F1500 X87.599 Y124.934 E77.09744
G0 F7500 X88.164 Y124.934
G1 F1500 X84.206 Y120.976 E77.3767
G0 F7500 X84.772 Y120.976
G1 F1500 X88.73 Y124.934 E77.65595
G0 F7500 X89.296 Y124.934
G1 F1500 X85.337 Y120.976 E77.93525
G0 F7500 X85.903 Y120.976
G1 F1500 X89.861 Y124.934 E78.21451
G0 F7500 X90.427 Y124.934
G1 F1500 X86.469 Y120.976 E78.49376
G0 F7500 X87.034 Y120.976
G1 F1500 X90.993 Y124.934 E78.77306
G0 F7500 X91.559 Y124.934
G1 F1500 X87.6 Y120.976 E79.05235
G0 F7500 X88.166 Y120.976
G1 F1500 X92.124 Y124.934 E79.33161
G0 F7500 X92.69 Y124.934
G1 F1500 X88.732 Y120.976 E79.61087
G0 F7500 X89.297 Y120.976
G1 F1500 X93.256 Y124.934 E79.89016
G0 F7500 X93.821 Y124.934
G1 F1500 X89.863 Y120.976 E80.16942
G0 F7500 X90.429 Y120.976
G1 F1500 X94.387 Y124.934 E80.44868
G0 F7500 X94.953 Y124.934
G1 F1500 X90.994 Y120.976 E80.72797
G0 F7500 X91.56 Y120.976
G1 F1500 X95.518 Y124.934 E81.00723
G0 F7500 X96.084 Y124.934
G1 F1500 X92.126 Y120.976 E81.28649
G0 F7500 X92.691 Y120.976
G1 F1500 X96.65 Y124.934 E81.56578
G0 F7500 X97.215 Y124.934
G1 F1500 X93.257 Y120.976 E81.84504
G0 F7500 X93.823 Y120.976
G1 F1500 X97.781 Y124.934 E82.1243
G0 F7500 X98.347 Y124.934
G1 F1500 X94.388 Y120.976 E82.40359
G0 F7500 X94.954 Y120.976
G1 F1500 X98.912 Y124.934 E82.68285
G0 F7500 X99.478 Y124.934
G1 F1500 X95.52 Y120.976 E82.96211
G0 F7500 X96.085 Y120.976
G1 F1500 X100.044 Y124.934 E83.2414
G0 F7500 X100.609 Y124.934
G1 F1500 X96.651 Y120.976 E83.52066
G0 F7500 X97.217 Y120.976
G1 F1500 X101.175 Y124.934 E83.79992
G0 F7500 X101.741 Y124.934
G1 F1500 X97.782 Y120.976 E84.07921
G0 F7500 X98.348 Y120.976
G1 F1500 X102.307 Y124.934 E84.35851
G0 F7500 X102.872 Y124.934
G1 F1500 X98.914 Y120.976 E84.63776
G0 F7500 X99.48 Y120.976
G1 F1500 X103.438 Y124.934 E84.91702
G0 F7500 X104.004 Y124.934
G1 F1500 X100.045 Y120.976 E85.19632
G0 F7500 X100.611 Y120.976
G1 F1500 X104.569 Y124.934 E85.47557
G0 F7500 X105.135 Y124.934
G1 F1500 X101.177 Y120.976 E85.75483
G0 F7500 X101.742 Y120.976
G1 F1500 X105.701 Y124.934 E86.03413
G0 F7500 X106.266 Y124.934
G1 F1500 X102.308 Y120.976 E86.31338
G0 F7500 X102.874 Y120.976
G1 F1500 X106.832 Y124.934 E86.59264
G0 F7500 X107.398 Y124.934
G1 F1500 X103.439 Y120.976 E86.87194
G0 F7500 X104.005 Y120.976
G1 F1500 X107.963 Y124.934 E87.15119
G0 F7500 X108.529 Y124.934
G1 F1500 X104.571 Y120.976 E87.43045
G0 F7500 X105.136 Y120.976
G1 F1500 X109.095 Y124.934 E87.70975
G0 F7500 X109.66 Y124.934
G1 F1500 X105.702 Y120.976 E87.989
G0 F7500 X106.268 Y120.976
G1 F1500 X110.226 Y124.934 E88.26826
G0 F7500 X110.792 Y124.934
G1 F1500 X106.833 Y120.976 E88.54756
G0 F7500 X107.399 Y120.976
G1 F1500 X111.358 Y124.934 E88.82685
G0 F7500 X111.923 Y124.934
G1 F1500 X107.965 Y120.976 E89.10611
G0 F7500 X108.53 Y120.976
G1 F1500 X112.489 Y124.934 E89.3854
G0 F7500 X113.055 Y124.934
G1 F1500 X109.096 Y120.976 E89.6647
G0 F7500 X109.662 Y120.976
G1 F1500 X113.62 Y124.934 E89.94395
G0 F7500 X114.186 Y124.934
G1 F1500 X110.228 Y120.976 E90.22321
G0 F7500 X110.793 Y120.976
G1 F1500 X114.752 Y124.934 E90.50251
G0 F7500 X115.317 Y124.934
G1 F1500 X111.359 Y120.976 E90.78176
G0 F7500 X111.925 Y120.976
G1 F1500 X115.883 Y124.934 E91.06102
G0 F7500 X116.449 Y124.934
G1 F1500 X112.49 Y120.976 E91.34032
G0 F7500 X113.056 Y120.976
G1 F1500 X117.014 Y124.934 E91.61957
G0 F7500 X117.58 Y124.934
G1 F1500 X113.622 Y120.976 E91.89883
G0 F7500 X114.187 Y120.976
G1 F1500 X118.146 Y124.934 E92.17813
G0 F7500 X118.711 Y124.934
G1 F1500 X114.753 Y120.976 E92.45738
G0 F7500 X115.319 Y120.976
G1 F1500 X119.277 Y124.934 E92.73664
G0 F7500 X119.843 Y124.934
G1 F1500 X115.884 Y120.976 E93.01594
G0 F7500 X116.45 Y120.976
G1 F1500 X120.408 Y124.934 E93.29519
G0 F7500 X120.974 Y124.934
G1 F1500 X117.016 Y120.976 E93.57445
G0 F7500 X117.581 Y120.976
G1 F1500 X121.54 Y124.934 E93.85375
G0 F7500 X122.106 Y124.934
G1 F1500 X118.147 Y120.976 E94.13304
G0 F7500 X118.713 Y120.976
G1 F1500 X122.671 Y124.934 E94.4123
G0 F7500 X123.237 Y124.934
G1 F1500 X119.279 Y120.976 E94.69156
G0 F7500 X119.844 Y120.976
G1 F1500 X123.803 Y124.934 E94.97085
G0 F7500 X124.368 Y124.934
G1 F1500 X120.41 Y120.976 E95.25011
G0 F7500 X120.976 Y120.976
G1 F1500 X124.934 Y124.934 E95.52937
G0 F7500 X125.5 Y124.934
G1 F1500 X121.541 Y120.976 E95.80866
G0 F7500 X122.107 Y120.976
G1 F1500 X126.065 Y124.934 E96.08792
G0 F7500 X126.631 Y124.934
G1 F1500 X122.673 Y120.976 E96.36718
G0 F7500 X123.238 Y120.976
G1 F1500 X127.197 Y124.934 E96.64647
G0 F7500 X127.762 Y124.934
G1 F1500 X123.804 Y120.976 E96.92573
G0 F7500 X124.37 Y120.976
G1 F1500 X128.328 Y124.934 E97.20499
G0 F7500 X128.894 Y124.934
G1 F1500 X124.935 Y120.976 E97.48428
G0 F7500 X125.501 Y120.976
G1 F1500 X129.459 Y124.934 E97.76354
G0 F7500 X130.025 Y124.934
G1 F1500 X126.067 Y120.976 E98.0428
G0 F7500 X126.632 Y120.976
G1 F1500 X130.591 Y124.934 E98.32209
G0 F7500 X131.156 Y124.934
G1 F1500 X127.198 Y120.976 E98.60135
G0 F7500 X127.764 Y120.976
G1 F1500 X131.722 Y124.934 E98.88061
G0 F7500 X132.288 Y124.934
G1 F1500 X128.329 Y120.976 E99.1599
G0 F7500 X128.895 Y120.976
G1 F1500 X132.854 Y124.934 E99.43919
G0 F7500 X133.419 Y124.934
G1 F1500 X129.461 Y120.976 E99.71845
G0 F7500 X130.027 Y120.976
G1 F1500 X133.985 Y124.934 E99.99771
G0 F7500 X134.551 Y124.934
G1 F1500 X130.592 Y120.976 E100.277
G0 F7500 X131.158 Y120.976
G1 F1500 X135.116 Y124.934 E100.55626
G0 F7500 X135.682 Y124.934
G1 F1500 X131.724 Y120.976 E100.83552
G0 F7500 X132.289 Y120.976
G1 F1500 X136.248 Y124.934 E101.11481
G0 F7500 X136.813 Y124.934
G1 F1500 X132.855 Y120.976 E101.39407
G0 F7500 X133.421 Y120.976
G1 F1500 X137.379 Y124.934 E101.67333
G0 F7500 X137.945 Y124.934
G1 F1500 X133.986 Y120.976 E101.95262
G0 F7500 X134.552 Y120.976
G1 F1500 X138.51 Y124.934 E102.23188
G0 F7500 X139.076 Y124.934
G1 F1500 X135.118 Y120.976 E102.51114
G0 F7500 X135.683 Y120.976
G1 F1500 X139.642 Y124.934 E102.79043
G0 F7500 X140.207 Y124.934
G1 F1500 X136.249 Y120.976 E103.06969
G0 F7500 X136.815 Y120.976
G1 F1500 X140.773 Y124.934 E103.34895
G0 F7500 X141.339 Y124.934
G1 F1500 X137.38 Y120.976 E103.62824
G0 F7500 X137.946 Y120.976
G1 F1500 X141.905 Y124.934 E103.90754
G0 F7500 X142.47 Y124.934
G1 F1500 X138.512 Y120.976 E104.1868
G0 F7500 X139.078 Y120.976
G1 F1500 X143.036 Y124.934 E104.46605
G0 F7500 X143.602 Y124.934
G1 F1500 X139.643 Y120.976 E104.74535
G0 F7500 X140.209 Y120.976
G1 F1500 X144.167 Y124.934 E105.02461
G0 F7500 X144.733 Y124.934
G1 F1500 X140.775 Y120.976 E105.30386
G0 F7500 X141.34 Y120.976
G1 F1500 X145.299 Y124.934 E105.58316
G0 F7500 X145.864 Y124.934
G1 F1500 X141.906 Y120.976 E105.86242
G0 F7500 X142.472 Y120.976
G1 F1500 X146.43 Y124.934 E106.14167
G0 F7500 X146.996 Y124.934
G1 F1500 X143.037 Y120.976 E106.42097
G0 F7500 X143.603 Y120.976
G1 F1500 X147.561 Y124.934 E106.70023
G0 F7500 X148.127 Y124.934
G1 F1500 X144.169 Y120.976 E106.97948
G0 F7500 X144.734 Y120.976
G1 F1500 X148.693 Y124.934 E107.25878
G0 F7500 X149.258 Y124.934
G1 F1500 X145.3 Y120.976 E107.53804
G0 F7500 X145.808 Y120.918
G1 F1500 X149.824 Y124.934 E107.82139
G0 F7500 X150.39 Y124.934
G1 F1500 X146.167 Y120.711 E108.11934
G0 F7500 X146.436 Y120.415
G1 F1500 X150.955 Y124.934 E108.43818
G0 F7500 X151.364 Y124.777
G1 F1500 X146.61 Y120.022 E108.77364
G0 F7500 X146.61 Y119.457
G1 F1500 X151.364 Y124.211 E109.10906
G0 F7500 X151.364 Y123.646
G1 F1500 X146.61 Y118.891 E109.44451
G0 F7500 X146.61 Y118.325
G1 F1500 X151.364 Y123.08 E109.77997
G0 F7500 X151.364 Y122.514
G1 F1500 X146.61 Y117.76 E110.11539
G0 F7500 X146.61 Y117.194
G1 F1500 X151.364 Y121.949 E110.45085
G0 F7500 X151.364 Y121.383
G1 F1500 X146.61 Y116.628 E110.7863
G0 F7500 X146.61 Y116.063
G1 F1500 X151.364 Y120.817 E111.12172
G0 F7500 X151.364 Y120.251
G1 F1500 X146.61 Y115.497 E111.45714
G0 F7500 X146.61 Y114.931
G1 F1500 X151.364 Y119.686 E111.7926
G0 F7500 X151.364 Y119.12
G1 F1500 X146.61 Y114.366 E112.12802
G0 F7500 X146.61 Y113.8
G1 F1500 X151.364 Y118.554 E112.46344
G0 F7500 X151.364 Y117.989
G1 F1500 X146.61 Y113.234 E112.79889
G0 F7500 X146.61 Y112.668
G1 F1500 X151.364 Y117.423 E113.13435
G0 F7500 X151.364 Y116.857
G1 F1500 X146.61 Y112.103 E113.46977
G0 F7500 X146.61 Y111.537
G1 F1500 X151.364 Y116.292 E113.80523
G0 F7500 X151.364 Y115.726
G1 F1500 X146.61 Y110.971 E114.14068
G0 F7500 X146.61 Y110.406
G1 F1500 X151.364 Y115.16 E114.4761
G0 F7500 X151.364 Y114.595
G1 F1500 X146.61 Y109.84 E114.81156
G0 F7500 X146.61 Y109.274
G1 F1500 X151.364 Y114.029 E115.14701
G0 F7500 X151.364 Y113.463
G1 F1500 X146.61 Y108.709 E115.48243
G0 F7500 X146.61 Y108.143
G1 F1500 X151.364 Y112.898 E115.81789
G0 F7500 X151.364 Y112.332
G1 F1500 X146.61 Y107.577 E116.15335
G0 F7500 X146.61 Y107.012
G1 F1500 X151.364 Y111.766 E116.48877
G0 F7500 X151.364 Y111.201
G1 F1500 X146.61 Y106.446 E116.82422
G0 F7500 X146.61 Y105.88
G1 F1500 X151.364 Y110.635 E117.15968
G0 F7500 X151.364 Y110.069
G1 F1500 X146.61 Y105.315 E117.4951
G0 F7500 X146.61 Y104.749
G1 F1500 X151.364 Y109.503 E117.83052
G0 F7500 X151.364 Y108.938
G1 F1500 X146.61 Y104.183 E118.16597
G0 F7500 X146.61 Y103.618
G1 F1500 X151.364 Y108.372 E118.50139
G0 F7500 X151.364 Y107.806
G1 F1500 X146.61 Y103.052 E118.83681
G0 F7500 X146.61 Y102.486
G1 F1500 X151.364 Y107.241 E119.17227
G0 F7500 X151.364 Y106.675
G1 F1500 X146.61 Y101.92 E119.50773
G0 F7500 X146.61 Y101.355
G1 F1500 X151.364 Y106.109 E119.84315
G0 F7500 X151.364 Y105.544
G1 F1500 X146.61 Y100.789 E120.1786
G0 F7500 X146.61 Y100.223
G1 F1500 X151.364 Y104.978 E120.51406
G0 F7500 X151.364 Y104.412
G1 F1500 X146.61 Y99.658 E120.84948
G0 F7500 X146.61 Y99.092
G1 F1500 X151.364 Y103.847 E121.18493
G0 F7500 X151.364 Y103.281
G1 F1500 X146.61 Y98.526 E121.52039
G0 F7500 X146.61 Y97.961
G1 F1500 X151.364 Y102.715 E121.85581
G0 F7500 X151.364 Y102.15
G1 F1500 X146.61 Y97.395 E122.19126
G0 F7500 X146.61 Y96.829
G1 F1500 X151.364 Y101.584 E122.52672
G0 F7500 X151.364 Y101.018
G1 F1500 X146.61 Y96.264 E122.86214
G0 F7500 X146.61 Y95.698
G1 F1500 X151.364 Y100.453 E123.1976
G0 F7500 X151.364 Y99.887
G1 F1500 X146.61 Y95.132 E123.53305
G0 F7500 X146.61 Y94.567
G1 F1500 X151.364 Y99.321 E123.86847
G0 F7500 X151.364 Y98.755
G1 F1500 X146.61 Y94.001 E124.20389
G0 F7500 X146.61 Y93.435
G1 F1500 X151.364 Y98.19 E124.53935
G0 F7500 X151.364 Y97.624
G1 F1500 X146.61 Y92.869 E124.8748
G0 F7500 X146.61 Y92.304
G1 F1500 X151.364 Y97.058 E125.21022
G0 F7500 X151.364 Y96.493
G1 F1500 X141.076 Y86.204 E125.93613
G0 F7500 X141.641 Y86.204
G1 F1500 X151.364 Y95.927 E126.62214
G0 F7500 X151.364 Y95.361
G1 F1500 X142.207 Y86.204 E127.26822
G0 F7500 X142.773 Y86.204
G1 F1500 X151.364 Y94.796 E127.8744
G0 F7500 X151.364 Y94.23
G1 F1500 X143.339 Y86.204 E128.44064
G0 F7500 X143.904 Y86.204
G1 F1500 X151.364 Y93.664 E128.96698
G0 F7500 X151.364 Y93.099
G1 F1500 X144.47 Y86.204 E129.45343
G0 F7500 X145.036 Y86.204
G1 F1500 X151.364 Y92.533 E129.89994
G0 F7500 X151.364 Y91.967
G1 F1500 X145.601 Y86.204 E130.30655
G0 F7500 X146.167 Y86.204
G1 F1500 X151.364 Y91.402 E130.67326
G0 F7500 X151.364 Y90.836
G1 F1500 X146.733 Y86.204 E131.00004
G0 F7500 X147.298 Y86.204
G1 F1500 X151.364 Y90.27 E131.28691
G0 F7500 X151.364 Y89.704
G1 F1500 X147.864 Y86.204 E131.53386
