;FLAVOR:Marlin
;TIME:8693
;Filament used: 6.78951m
;Layer height: 0.2
;MINX:75.202
;MINY:47.202
;MINZ:0.3
;MAXX:144.798
;MAXY:172.798
;MAXZ:5.1
;Generated with Cura_SteamEngine 5.2.1
M140 S60
M105
M190 S60
M104 S200
M105
M109 S200
M82 ;absolute extrusion mode
G28 ;Home
G1 Z15.0 F2000 ;Move the platform
G92 E0
G92 E0
G1 F1500 E-6.5
;LAYER_COUNT:25
;LAYER:0
M107
M204 S1000
;MESH:Large Display Mount Bottom-Body.stl
G0 F7500 X75.602 Y172.398 Z0.3
;TYPE:WALL-INNER
G1 F1500 E0
G1 X144.398 Y172.398 E3.43225
G1 X144.398 Y51.75 E9.4514
G1 X144.398 Y47.602 E9.65834
G1 X136.103 Y47.603 E10.07218
G1 X136.102 Y143.076 E14.83535
G1 X135.983 Y143.362 E14.85081
G1 X135.734 Y143.556 E14.86655
G1 X135.555 Y143.6 E14.87575
G1 X129.964 Y143.604 E15.15469
G1 X129.808 Y143.575 E15.1626
G1 X129.602 Y143.458 E15.17442
G1 X129.497 Y143.339 E15.18234
G1 X129.4 Y143.079 E15.19618
G1 X129.396 Y77.604 E18.46274
G1 X90.604 Y77.604 E20.39809
G1 X90.6 Y143.079 E23.66465
G1 X90.549 Y143.256 E23.67384
G1 X90.438 Y143.42 E23.68372
G1 X90.192 Y143.575 E23.69822
G1 X90.036 Y143.604 E23.70614
G1 X84.422 Y143.603 E23.98622
G1 X84.137 Y143.482 E24.00167
G1 X84.017 Y143.362 E24.01014
G1 X83.898 Y143.07 E24.02587
G1 X83.897 Y47.603 E28.78873
G1 X75.602 Y47.602 E29.20257
G1 X75.602 Y172.398 E35.42867
G0 F7500 X75.202 Y172.798
;TYPE:WALL-OUTER
G1 F1500 X144.798 Y172.798 E38.90083
G1 X144.798 Y51.75 E44.93994
G1 X144.798 Y47.202 E45.16684
G1 X135.703 Y47.203 E45.62059
G1 X135.7 Y143.037 E50.40177
G1 X135.623 Y143.162 E50.40909
G1 X135.52 Y143.202 E50.41461
G1 X129.954 Y143.204 E50.6923
G1 X129.864 Y143.156 E50.69738
G1 X129.796 Y143.022 E50.70488
G1 X129.796 Y77.204 E53.98855
G1 X90.204 Y77.204 E55.96381
G1 X90.197 Y143.06 E59.24938
G1 X90.136 Y143.156 E59.25505
G1 X90.051 Y143.204 E59.25992
G1 X84.48 Y143.202 E59.53786
G1 X84.337 Y143.122 E59.54603
G1 X84.3 Y143.036 E59.5507
G1 X84.297 Y47.203 E64.33183
G1 X75.202 Y47.202 E64.78558
G1 X75.202 Y172.798 E71.05159
G0 F7500 X75.402 Y172.798
G0 X75.962 Y172.038
;TYPE:SKIN
G1 F1500 X144.038 Y172.038 E74.44792
G1 X144.038 Y51.75 E80.44911
G1 X144.038 Y47.962 E80.6381
G1 X136.463 Y47.963 E81.01601
G1 X136.46 Y143.138 E85.76431
G1 X136.354 Y143.449 E85.78071
G1 X136.184 Y143.68 E85.79502
G1 X135.961 Y143.85 E85.80901
G1 X135.524 Y143.961 E85.8315
G1 X129.88 Y143.958 E86.11308
G1 X129.698 Y143.919 E86.12237
G1 X129.431 Y143.785 E86.13727
G1 X129.137 Y143.447 E86.15962
G1 X129.038 Y143.138 E86.17581
G1 X129.036 Y77.964 E89.42735
G1 X90.964 Y77.964 E91.32677
G1 X90.962 Y143.145 E94.57867
G1 X90.86 Y143.444 E94.59443
G1 X90.634 Y143.737 E94.61289
G1 X90.329 Y143.909 E94.63036
G1 X90.054 Y143.963 E94.64434
G1 X84.469 Y143.962 E94.92298
G1 X84.219 Y143.922 E94.93561
G1 X83.901 Y143.764 E94.95332
G1 X83.646 Y143.455 E94.97331
G1 X83.54 Y143.132 E94.99027
G1 X83.537 Y47.963 E99.73827
G1 X75.962 Y47.962 E100.11619
G1 X75.962 Y172.038 E106.30637
G0 F7500 X76.236 Y171.836
G1 F1500 X76.161 Y171.761 E106.31166
G0 F7500 X76.161 Y171.196
G1 F1500 X76.801 Y171.836 E106.35681
G0 F7500 X77.367 Y171.836
G1 F1500 X76.161 Y170.63 E106.4419
G0 F7500 X76.161 Y170.064
G1 F1500 X77.933 Y171.836 E106.56693
G0 F7500 X78.498 Y171.836
G1 F1500 X76.161 Y169.499 E106.73181
G0 F7500 X76.161 Y168.933
G1 F1500 X79.064 Y171.836 E106.93664
G0 F7500 X79.63 Y171.836
G1 F1500 X76.161 Y168.367 E107.18139
G0 F7500 X76.161 Y167.802
G1 F1500 X80.195 Y171.836 E107.46601
G0 F7500 X80.761 Y171.836
G1 F1500 X76.161 Y167.236 E107.79057
G0 F7500 X76.161 Y166.67
G1 F1500 X81.327 Y171.836 E108.15506
G0 F7500 X81.892 Y171.836
G1 F1500 X76.161 Y166.105 E108.55941
G0 F7500 X76.161 Y165.539
G1 F1500 X82.458 Y171.836 E109.0037
G0 F7500 X83.024 Y171.836
G1 F1500 X76.161 Y164.973 E109.48792
G0 F7500 X76.161 Y164.407
G1 F1500 X83.589 Y171.836 E110.01204
G0 F7500 X84.155 Y171.836
G1 F1500 X76.161 Y163.842 E110.57606
G0 F7500 X76.161 Y163.276
G1 F1500 X84.721 Y171.836 E111.18002
G0 F7500 X85.286 Y171.836
G1 F1500 X76.161 Y162.71 E111.82387
G0 F7500 X76.161 Y162.145
G1 F1500 X85.852 Y171.836 E112.50762
G0 F7500 X86.418 Y171.836
G1 F1500 X76.161 Y161.579 E113.23131
G0 F7500 X76.161 Y161.013
G1 F1500 X86.984 Y171.836 E113.99493
G0 F7500 X87.549 Y171.836
G1 F1500 X76.161 Y160.448 E114.79841
G0 F7500 X76.161 Y159.882
G1 F1500 X88.115 Y171.836 E115.64183
G0 F7500 X88.681 Y171.836
G1 F1500 X76.161 Y159.316 E116.52519
G0 F7500 X76.161 Y158.751
G1 F1500 X89.246 Y171.836 E117.4484
G0 F7500 X89.812 Y171.836
G1 F1500 X76.161 Y158.185 E118.41156
G0 F7500 X76.161 Y157.619
G1 F1500 X90.378 Y171.836 E119.41464
G0 F7500 X90.943 Y171.836
G1 F1500 X76.161 Y157.054 E120.45759
G0 F7500 X76.161 Y156.488
G1 F1500 X91.509 Y171.836 E121.54048
G0 F7500 X92.075 Y171.836
G1 F1500 X76.161 Y155.922 E122.66329
G0 F7500 X76.161 Y155.357
G1 F1500 X92.64 Y171.836 E123.82598
G0 F7500 X93.206 Y171.836
G1 F1500 X76.161 Y154.791 E125.02859
G0 F7500 X76.161 Y154.225
G1 F1500 X93.772 Y171.836 E126.27115
G0 F7500 X94.337 Y171.836
G1 F1500 X76.161 Y153.659 E127.5536
G0 F7500 X76.161 Y153.094
G1 F1500 X94.903 Y171.836 E128.87594
G0 F7500 X95.469 Y171.836
G1 F1500 X76.161 Y152.528 E130.23823
G0 F7500 X76.161 Y151.962
G1 F1500 X96.035 Y171.836 E131.64045
G0 F7500 X96.6 Y171.836
G1 F1500 X76.161 Y151.397 E133.08253
G0 F7500 X76.161 Y150.831
G1 F1500 X97.166 Y171.836 E134.56454
G0 F7500 X97.732 Y171.836
G1 F1500 X76.161 Y150.265 E136.0865
G0 F7500 X76.161 Y149.7
G1 F1500 X98.297 Y171.836 E137.64831
G0 F7500 X98.863 Y171.836
G1 F1500 X76.161 Y149.134 E139.25006
G0 F7500 X76.161 Y148.568
G1 F1500 X99.429 Y171.836 E140.89174
G0 F7500 X99.994 Y171.836
G1 F1500 X76.161 Y148.003 E142.57329
G0 F7500 X76.161 Y147.437
G1 F1500 X100.56 Y171.836 E144.29477
G0 F7500 X101.126 Y171.836
G1 F1500 X76.161 Y146.871 E146.05618
G0 F7500 X76.161 Y146.306
G1 F1500 X101.691 Y171.836 E147.85746
G0 F7500 X102.257 Y171.836
G1 F1500 X76.161 Y145.74 E149.69868
G0 F7500 X76.161 Y145.174
G1 F1500 X102.823 Y171.836 E151.57983
G0 F7500 X103.388 Y171.836
G1 F1500 X76.161 Y144.608 E153.50087
G0 F7500 X76.161 Y144.043
G1 F1500 X103.954 Y171.836 E155.46182
G0 F7500 X104.52 Y171.836
G1 F1500 X76.161 Y143.477 E157.4627
G0 F7500 X76.161 Y142.911
G1 F1500 X105.085 Y171.836 E159.50348
G0 F7500 X105.651 Y171.836
G1 F1500 X76.161 Y142.346 E161.58416
G0 F7500 X76.161 Y141.78
G1 F1500 X106.217 Y171.836 E163.70477
G0 F7500 X106.783 Y171.836
G1 F1500 X76.161 Y141.214 E165.86532
G0 F7500 X76.161 Y140.649
G1 F1500 X107.348 Y171.836 E168.06573
G0 F7500 X107.914 Y171.836
G1 F1500 X76.161 Y140.083 E170.30608
G0 F7500 X76.161 Y139.517
G1 F1500 X108.48 Y171.836 E172.58636
G0 F7500 X109.045 Y171.836
G1 F1500 X76.161 Y138.952 E174.9065
G0 F7500 X76.161 Y138.386
G1 F1500 X109.611 Y171.836 E177.26658
G0 F7500 X110.177 Y171.836
G1 F1500 X76.161 Y137.82 E179.66659
G0 F7500 X76.161 Y137.255
G1 F1500 X110.742 Y171.836 E182.10647
G0 F7500 X111.308 Y171.836
G1 F1500 X76.161 Y136.689 E184.58628
G0 F7500 X76.161 Y136.123
G1 F1500 X83.408 Y143.37 E185.09759
G0 F7500 X83.343 Y142.74
G1 F1500 X76.161 Y135.558 E185.60432
G0 F7500 X76.161 Y134.992
G1 F1500 X83.343 Y142.174 E186.11105
G0 F7500 X83.343 Y141.608
G1 F1500 X76.161 Y134.426 E186.61778
G0 F7500 X76.161 Y133.86
G1 F1500 X83.343 Y141.043 E187.12454
G0 F7500 X83.343 Y140.477
G1 F1500 X76.161 Y133.295 E187.63127
G0 F7500 X76.161 Y132.729
G1 F1500 X83.343 Y139.911 E188.138
G0 F7500 X83.343 Y139.345
G1 F1500 X76.161 Y132.163 E188.64473
G0 F7500 X76.161 Y131.598
G1 F1500 X83.343 Y138.78 E189.15146
G0 F7500 X83.343 Y138.214
G1 F1500 X76.161 Y131.032 E189.65819
G0 F7500 X76.161 Y130.466
G1 F1500 X83.343 Y137.648 E190.16492
G0 F7500 X83.343 Y137.083
G1 F1500 X76.161 Y129.901 E190.67165
G0 F7500 X76.161 Y129.335
G1 F1500 X83.343 Y136.517 E191.17837
G0 F7500 X83.343 Y135.951
G1 F1500 X76.161 Y128.769 E191.6851
G0 F7500 X76.161 Y128.204
G1 F1500 X83.343 Y135.386 E192.19183
G0 F7500 X83.343 Y134.82
G1 F1500 X76.161 Y127.638 E192.69856
G0 F7500 X76.161 Y127.072
G1 F1500 X83.343 Y134.254 E193.20529
G0 F7500 X83.343 Y133.689
G1 F1500 X76.161 Y126.507 E193.71202
G0 F7500 X76.161 Y125.941
G1 F1500 X83.342 Y133.122 E194.21868
G0 F7500 X83.342 Y132.557
G1 F1500 X76.161 Y125.375 E194.72537
G0 F7500 X76.161 Y124.81
G1 F1500 X83.342 Y131.991 E195.23203
G0 F7500 X83.342 Y131.425
G1 F1500 X76.161 Y124.244 E195.73869
G0 F7500 X76.161 Y123.678
G1 F1500 X83.342 Y130.86 E196.24538
G0 F7500 X83.342 Y130.294
G1 F1500 X76.161 Y123.112 E196.75208
G0 F7500 X76.161 Y122.547
G1 F1500 X83.342 Y129.728 E197.25873
G0 F7500 X83.342 Y129.162
G1 F1500 X76.161 Y121.981 E197.76539
G0 F7500 X76.161 Y121.415
G1 F1500 X83.342 Y128.597 E198.27209
G0 F7500 X83.342 Y128.031
G1 F1500 X76.161 Y120.85 E198.77874
G0 F7500 X76.161 Y120.284
G1 F1500 X83.342 Y127.465 E199.2854
G0 F7500 X83.342 Y126.9
G1 F1500 X76.161 Y119.718 E199.7921
G0 F7500 X76.161 Y119.153
G1 F1500 X83.342 Y126.334 E200.29875
G0 F7500 X83.342 Y125.768
G1 F1500 X76.161 Y118.587 E200.80541
G0 F7500 X76.161 Y118.021
G1 F1500 X83.342 Y125.203 E201.31211
G0 F7500 X83.342 Y124.637
G1 F1500 X76.161 Y117.456 E201.81876
G0 F7500 X76.161 Y116.89
G1 F1500 X83.341 Y124.071 E202.32539
G0 F7500 X83.341 Y123.505
G1 F1500 X76.161 Y116.324 E202.83201
G0 F7500 X76.161 Y115.759
G1 F1500 X83.341 Y122.939 E203.3386
G0 F7500 X83.341 Y122.374
G1 F1500 X76.161 Y115.193 E203.84522
G0 F7500 X76.161 Y114.627
G1 F1500 X83.341 Y121.808 E204.35184
G0 F7500 X83.341 Y121.242
G1 F1500 X76.161 Y114.061 E204.85847
G0 F7500 X76.161 Y113.496
G1 F1500 X83.341 Y120.676 E205.36506
G0 F7500 X83.341 Y120.111
G1 F1500 X76.161 Y112.93 E205.87168
G0 F7500 X76.161 Y112.364
G1 F1500 X83.341 Y119.545 E206.3783
G0 F7500 X83.341 Y118.979
G1 F1500 X76.161 Y111.799 E206.88489
G0 F7500 X76.161 Y111.233
G1 F1500 X83.341 Y118.414 E207.39151
G0 F7500 X83.341 Y117.848
G1 F1500 X76.161 Y110.667 E207.89814
G0 F7500 X76.161 Y110.102
G1 F1500 X83.341 Y117.282 E208.40472
G0 F7500 X83.341 Y116.717
G1 F1500 X76.161 Y109.536 E208.91135
G0 F7500 X76.161 Y108.97
G1 F1500 X83.341 Y116.151 E209.41797
G0 F7500 X83.341 Y115.585
G1 F1500 X76.161 Y108.405 E209.92456
G0 F7500 X76.161 Y107.839
G1 F1500 X83.341 Y115.02 E210.43118
G0 F7500 X83.341 Y114.453
G1 F1500 X76.161 Y107.273 E210.93777
G0 F7500 X76.161 Y106.708
G1 F1500 X83.341 Y113.888 E211.44436
G0 F7500 X83.341 Y113.322
G1 F1500 X76.161 Y106.142 E211.95094
G0 F7500 X76.161 Y105.576
G1 F1500 X83.341 Y112.756 E212.45753
G0 F7500 X83.341 Y112.19
G1 F1500 X76.161 Y105.011 E212.96408
G0 F7500 X76.161 Y104.445
G1 F1500 X83.341 Y111.625 E213.47067
G0 F7500 X83.341 Y111.059
G1 F1500 X76.161 Y103.879 E213.97726
G0 F7500 X76.161 Y103.313
G1 F1500 X83.341 Y110.493 E214.48385
G0 F7500 X83.341 Y109.928
G1 F1500 X76.161 Y102.748 E214.99043
G0 F7500 X76.161 Y102.182
G1 F1500 X83.341 Y109.362 E215.49702
G0 F7500 X83.341 Y108.796
G1 F1500 X76.161 Y101.616 E216.00361
G0 F7500 X76.161 Y101.051
G1 F1500 X83.341 Y108.231 E216.5102
G0 F7500 X83.341 Y107.665
G1 F1500 X76.161 Y100.485 E217.01679
G0 F7500 X76.161 Y99.919
G1 F1500 X83.341 Y107.099 E217.52337
G0 F7500 X83.341 Y106.534
G1 F1500 X76.161 Y99.354 E218.02996
G0 F7500 X76.161 Y98.788
G1 F1500 X83.341 Y105.968 E218.53655
G0 F7500 X83.341 Y105.402
G1 F1500 X76.161 Y98.222 E219.04314
G0 F7500 X76.161 Y97.657
G1 F1500 X83.34 Y104.836 E219.54965
G0 F7500 X83.34 Y104.27
G1 F1500 X76.161 Y97.091 E220.05617
G0 F7500 X76.161 Y96.525
G1 F1500 X83.34 Y103.704 E220.56269
G0 F7500 X83.34 Y103.139
G1 F1500 X76.161 Y95.96 E221.06921
G0 F7500 X76.161 Y95.394
G1 F1500 X83.34 Y102.573 E221.57572
G0 F7500 X83.34 Y102.007
G1 F1500 X76.161 Y94.828 E222.08224
G0 F7500 X76.161 Y94.262
G1 F1500 X83.34 Y101.442 E222.58879
G0 F7500 X83.34 Y100.876
G1 F1500 X76.161 Y93.697 E223.09531
G0 F7500 X76.161 Y93.131
G1 F1500 X83.34 Y100.31 E223.60183
G0 F7500 X83.34 Y99.745
G1 F1500 X76.161 Y92.565 E224.10838
G0 F7500 X76.161 Y92
G1 F1500 X83.34 Y99.179 E224.6149
G0 F7500 X83.34 Y98.613
G1 F1500 X76.161 Y91.434 E225.12141
G0 F7500 X76.161 Y90.868
G1 F1500 X83.34 Y98.048 E225.62797
G0 F7500 X83.34 Y97.482
G1 F1500 X76.161 Y90.303 E226.13448
G0 F7500 X76.161 Y89.737
G1 F1500 X83.34 Y96.916 E226.641
G0 F7500 X83.34 Y96.351
G1 F1500 X76.161 Y89.171 E227.14755
G0 F7500 X76.161 Y88.606
G1 F1500 X83.34 Y95.785 E227.65407
G0 F7500 X83.339 Y95.218
G1 F1500 X76.161 Y88.04 E228.16052
G0 F7500 X76.161 Y87.474
G1 F1500 X83.339 Y94.653 E228.667
G0 F7500 X83.339 Y94.087
G1 F1500 X76.161 Y86.909 E229.17345
G0 F7500 X76.161 Y86.343
G1 F1500 X83.339 Y93.521 E229.67989
G0 F7500 X83.339 Y92.956
G1 F1500 X76.161 Y85.777 E230.18637
G0 F7500 X76.161 Y85.212
G1 F1500 X83.339 Y92.39 E230.69282
G0 F7500 X83.339 Y91.824
G1 F1500 X76.161 Y84.646 E231.19927
G0 F7500 X76.161 Y84.08
G1 F1500 X83.339 Y91.259 E231.70575
G0 F7500 X83.339 Y90.693
G1 F1500 X76.161 Y83.514 E232.21223
G0 F7500 X76.161 Y82.949
G1 F1500 X83.339 Y90.127 E232.71868
G0 F7500 X83.339 Y89.562
G1 F1500 X76.161 Y82.383 E233.22516
G0 F7500 X76.161 Y81.817
G1 F1500 X83.339 Y88.996 E233.73164
G0 F7500 X83.339 Y88.43
G1 F1500 X76.161 Y81.252 E234.23809
G0 F7500 X76.161 Y80.686
G1 F1500 X83.339 Y87.865 E234.74457
G0 F7500 X83.339 Y87.299
G1 F1500 X76.161 Y80.12 E235.25105
G0 F7500 X76.161 Y79.555
G1 F1500 X83.339 Y86.733 E235.7575
G0 F7500 X83.339 Y86.168
G1 F1500 X76.161 Y78.989 E236.26398
G0 F7500 X76.161 Y78.423
G1 F1500 X83.338 Y85.601 E236.77039
G0 F7500 X83.338 Y85.035
G1 F1500 X76.161 Y77.858 E237.27677
G0 F7500 X76.161 Y77.292
G1 F1500 X83.338 Y84.47 E237.78318
G0 F7500 X83.338 Y83.904
G1 F1500 X76.161 Y76.726 E238.28959
G0 F7500 X76.161 Y76.161
G1 F1500 X83.338 Y83.338 E238.79597
G0 F7500 X83.338 Y82.773
G1 F1500 X76.161 Y75.595 E239.30238
G0 F7500 X76.161 Y75.029
G1 F1500 X83.338 Y82.207 E239.80879
G0 F7500 X83.338 Y81.641
G1 F1500 X76.161 Y74.464 E240.31517
G0 F7500 X76.161 Y73.898
G1 F1500 X83.338 Y81.076 E240.82158
G0 F7500 X83.338 Y80.51
G1 F1500 X76.161 Y73.332 E241.32799
G0 F7500 X76.161 Y72.766
G1 F1500 X83.338 Y79.944 E241.8344
G0 F7500 X83.338 Y79.379
G1 F1500 X76.161 Y72.201 E242.34081
G0 F7500 X76.161 Y71.635
G1 F1500 X83.338 Y78.813 E242.84722
G0 F7500 X83.338 Y78.247
G1 F1500 X76.161 Y71.069 E243.35364
G0 F7500 X76.161 Y70.504
G1 F1500 X83.338 Y77.682 E243.86005
G0 F7500 X83.338 Y77.116
G1 F1500 X76.161 Y69.938 E244.36646
G0 F7500 X76.161 Y69.372
G1 F1500 X83.338 Y76.549 E244.87283
G0 F7500 X83.338 Y75.984
G1 F1500 X76.161 Y68.807 E245.37921
G0 F7500 X76.161 Y68.241
G1 F1500 X83.338 Y75.418 E245.88559
G0 F7500 X83.338 Y74.852
G1 F1500 X76.161 Y67.675 E246.39196
G0 F7500 X76.161 Y67.11
G1 F1500 X83.338 Y74.287 E246.89834
G0 F7500 X83.338 Y73.721
G1 F1500 X76.161 Y66.544 E247.40471
G0 F7500 X76.161 Y65.978
G1 F1500 X83.338 Y73.155 E247.91109
G0 F7500 X83.338 Y72.59
G1 F1500 X76.161 Y65.413 E248.41747
G0 F7500 X76.161 Y64.847
G1 F1500 X83.338 Y72.024 E248.92384
G0 F7500 X83.338 Y71.458
G1 F1500 X76.161 Y64.281 E249.43022
G0 F7500 X76.161 Y63.715
G1 F1500 X83.338 Y70.893 E249.93663
G0 F7500 X83.338 Y70.327
G1 F1500 X76.161 Y63.15 E250.44301
G0 F7500 X76.161 Y62.584
G1 F1500 X83.338 Y69.761 E250.94938
G0 F7500 X83.338 Y69.196
G1 F1500 X76.161 Y62.018 E251.45579
G0 F7500 X76.161 Y61.453
G1 F1500 X83.338 Y68.63 E251.96217
G0 F7500 X83.338 Y68.064
G1 F1500 X76.161 Y60.887 E252.46855
G0 F7500 X76.161 Y60.321
G1 F1500 X83.338 Y67.498 E252.97492
G0 F7500 X83.337 Y66.932
G1 F1500 X76.161 Y59.756 E253.48123
G0 F7500 X76.161 Y59.19
G1 F1500 X83.337 Y66.366 E253.98753
G0 F7500 X83.337 Y65.801
G1 F1500 X76.161 Y58.624 E254.49387
G0 F7500 X76.161 Y58.059
G1 F1500 X83.337 Y65.235 E255.00018
G0 F7500 X83.337 Y64.669
G1 F1500 X76.161 Y57.493 E255.50649
G0 F7500 X76.161 Y56.927
G1 F1500 X83.337 Y64.104 E256.01283
G0 F7500 X83.337 Y63.538
G1 F1500 X76.161 Y56.362 E256.51913
G0 F7500 X76.161 Y55.796
G1 F1500 X83.337 Y62.972 E257.02544
G0 F7500 X83.337 Y62.407
G1 F1500 X76.161 Y55.23 E257.53178
G0 F7500 X76.161 Y54.665
G1 F1500 X83.337 Y61.841 E258.03808
G0 F7500 X83.337 Y61.275
G1 F1500 X76.161 Y54.099 E258.54439
G0 F7500 X76.161 Y53.533
G1 F1500 X83.337 Y60.71 E259.05073
G0 F7500 X83.337 Y60.144
G1 F1500 X76.161 Y52.967 E259.55707
G0 F7500 X76.161 Y52.402
